;FLAVOR:Marlin
;TIME:9930
;Filament used: 11.2046m
;Layer height: 0.2
;MINX:24.335
;MINY:69.335
;MINZ:0.24
;MAXX:195.664
;MAXY:150.664
;MAXZ:31.09
;Generated with Cura_SteamEngine main
M140 S50
M105
M190 S50
M104 S200
M105
M109 S200
M82 ;absolute extrusion mode
M201 X500.00 Y500.00 Z100.00 E5000.00 ;Setup machine max acceleration
M203 X500.00 Y500.00 Z10.00 E50.00 ;Setup machine max feedrate
M204 P500.00 R1000.00 T500.00 ;Setup Print/Retract/Travel acceleration
M205 X8.00 Y8.00 Z0.40 E5.00 ;Setup Jerk
M220 S100 ;Reset Feedrate
M221 S100 ;Reset Flowrate

G28 ;Home

G92 E0 ;Reset Extruder
G1 Z2.0 F3000 ;Move Z Axis up
G1 X10.1 Y20 Z0.28 F5000.0 ;Move to start position
G1 X10.1 Y200.0 Z0.28 F1500.0 E15 ;Draw the first line
G1 X10.4 Y200.0 Z0.28 F5000.0 ;Move to side a little
G1 X10.4 Y20 Z0.28 F1500.0 E30 ;Draw the second line
G92 E0 ;Reset Extruder
G1 Z2.0 F3000 ;Move Z Axis up

G92 E0
G92 E0
G1 F2700 E-5
;LAYER_COUNT:150
;LAYER:-6
M107
G0 F12000 X33.391 Y81.986 Z0.24
;TYPE:SUPPORT-INTERFACE
G1 F2700 E0
G1 F1800 X32.461 Y82.501 E0.08486
G1 X31.513 Y83.124 E0.17541
G1 X30.644 Y83.792 E0.2629
G1 X29.804 Y84.556 E0.35354
G1 X29.177 Y85.205 E0.42558
G1 X28.447 Y86.074 E0.51617
G1 X27.809 Y86.966 E0.60371
G1 X27.23 Y87.93 E0.69348
G1 X26.778 Y88.81 E0.77245
G1 X26.36 Y89.795 E0.85786
G1 X26.02 Y90.799 E0.94247
G1 X25.736 Y91.903 E1.03347
G1 X25.573 Y92.785 E1.10507
G1 X25.448 Y93.859 E1.19138
G1 X25.4 Y95.009 E1.28326
G1 X25.401 Y125.049 E3.68118
G1 X25.408 Y125.446 E3.71287
G1 X25.489 Y126.605 E3.80562
G1 X25.633 Y127.577 E3.88405
G1 X25.878 Y128.697 E3.97557
G1 X26.216 Y129.801 E4.06773
G1 X26.593 Y130.772 E4.15088
G1 X26.986 Y131.609 E4.22469
G1 X27.539 Y132.607 E4.31577
G1 X28.13 Y133.499 E4.40118
G1 X28.789 Y134.354 E4.48735
G1 X29.554 Y135.196 E4.57816
G1 X30.205 Y135.823 E4.65031
G1 X31.077 Y136.556 E4.74124
G1 X31.959 Y137.185 E4.82772
G1 X32.931 Y137.77 E4.91827
G1 X33.798 Y138.217 E4.99614
G1 X34.706 Y138.603 E5.0749
G1 X35.791 Y138.978 E5.16653
G1 X36.903 Y139.264 E5.25819
G1 X37.868 Y139.443 E5.33653
G1 X38.86 Y139.552 E5.41619
G1 X39.994 Y139.599 E5.50679
G1 X56.475 Y139.601 E6.82238
G1 X57.386 Y139.682 E6.89538
G1 X58.054 Y139.844 E6.95025
G1 X58.671 Y140.082 E7.00304
G1 X59.289 Y140.413 E7.059
G1 X59.849 Y140.81 E7.1138
G1 X60.337 Y141.259 E7.16673
G1 X60.777 Y141.782 E7.22129
G1 X61.147 Y142.353 E7.2756
G1 X61.332 Y142.67 E7.3049
G1 X61.876 Y143.491 E7.38352
G1 X62.539 Y144.352 E7.47026
G1 X63.306 Y145.196 E7.5613
G1 X63.955 Y145.823 E7.63333
G1 X64.826 Y146.555 E7.72415
G1 X65.703 Y147.182 E7.81021
G1 X66.68 Y147.77 E7.90123
G1 X67.56 Y148.222 E7.9802
G1 X68.545 Y148.64 E8.06561
G1 X69.549 Y148.98 E8.15023
G1 X70.653 Y149.264 E8.24122
G1 X71.535 Y149.427 E8.31282
G1 X72.609 Y149.552 E8.39913
G1 X73.742 Y149.599 E8.48965
G1 X83.8 Y149.599 E9.29252
G1 X84.196 Y149.592 E9.32414
G1 X85.355 Y149.511 E9.41688
G1 X86.327 Y149.367 E9.49532
G1 X87.447 Y149.122 E9.58683
G1 X88.551 Y148.784 E9.679
G1 X89.538 Y148.4 E9.76354
G1 X90.426 Y147.983 E9.84185
G1 X91.424 Y147.416 E9.93347
G1 X92.243 Y146.874 E10.01187
G1 X93.104 Y146.211 E10.09861
G1 X93.946 Y145.446 E10.18942
G1 X94.573 Y144.795 E10.26157
G1 X95.305 Y143.924 E10.35239
G1 X95.934 Y143.044 E10.43873
G1 X96.456 Y142.188 E10.51877
G1 X96.878 Y141.589 E10.57725
G1 X97.356 Y141.075 E10.63328
G1 X97.855 Y140.657 E10.68525
G1 X98.448 Y140.276 E10.74151
G1 X99.061 Y139.986 E10.79564
G1 X99.697 Y139.775 E10.84913
G1 X100.369 Y139.645 E10.90377
G1 X101.041 Y139.6 E10.95753
G1 X123.975 Y139.601 E12.78822
G1 X124.874 Y139.68 E12.86026
G1 X125.538 Y139.839 E12.91476
G1 X126.157 Y140.076 E12.96767
G1 X126.771 Y140.401 E13.02312
G1 X127.349 Y140.81 E13.07965
G1 X127.837 Y141.259 E13.13258
G1 X128.277 Y141.782 E13.18714
G1 X128.647 Y142.353 E13.24145
G1 X128.832 Y142.67 E13.27075
G1 X129.376 Y143.491 E13.34936
G1 X130.039 Y144.352 E13.43611
G1 X130.806 Y145.196 E13.52714
G1 X131.455 Y145.823 E13.59918
G1 X132.326 Y146.555 E13.69
G1 X133.203 Y147.182 E13.77605
G1 X134.18 Y147.77 E13.86708
G1 X135.06 Y148.222 E13.94605
G1 X136.045 Y148.64 E14.03146
G1 X137.049 Y148.98 E14.11608
G1 X138.153 Y149.264 E14.20707
G1 X139.035 Y149.427 E14.27867
G1 X140.109 Y149.552 E14.36498
G1 X141.242 Y149.599 E14.4555
G1 X151.3 Y149.599 E15.25837
G1 X151.696 Y149.592 E15.28999
G1 X152.855 Y149.511 E15.38273
G1 X153.827 Y149.367 E15.46116
G1 X154.947 Y149.122 E15.55268
G1 X156.051 Y148.784 E15.64485
G1 X157.038 Y148.4 E15.72938
G1 X157.926 Y147.983 E15.8077
G1 X158.924 Y147.416 E15.89932
G1 X159.743 Y146.874 E15.97771
G1 X160.604 Y146.211 E16.06446
G1 X161.446 Y145.446 E16.15527
G1 X162.073 Y144.795 E16.22742
G1 X162.805 Y143.924 E16.31824
G1 X163.434 Y143.044 E16.40458
G1 X163.956 Y142.188 E16.48461
G1 X164.378 Y141.589 E16.5431
G1 X164.856 Y141.075 E16.59913
G1 X165.392 Y140.63 E16.65474
G1 X165.966 Y140.267 E16.70896
G1 X166.566 Y139.984 E16.76191
G1 X167.207 Y139.772 E16.8158
G1 X167.87 Y139.645 E16.86969
G1 X168.541 Y139.6 E16.92337
G1 X180.052 Y139.599 E17.84223
G1 X180.446 Y139.592 E17.87369
G1 X181.603 Y139.511 E17.96627
G1 X182.578 Y139.367 E18.04494
G1 X183.703 Y139.121 E18.13687
G1 X184.711 Y138.818 E18.22088
G1 X185.788 Y138.4 E18.3131
G1 X186.609 Y138.014 E18.38552
G1 X187.539 Y137.499 E18.47038
G1 X188.487 Y136.876 E18.56093
G1 X189.356 Y136.208 E18.64843
G1 X190.196 Y135.444 E18.73906
G1 X190.823 Y134.795 E18.8111
G1 X191.553 Y133.926 E18.90169
G1 X192.191 Y133.034 E18.98923
G1 X192.77 Y132.07 E19.079
G1 X193.222 Y131.19 E19.15797
G1 X193.644 Y130.197 E19.24409
G1 X193.98 Y129.201 E19.328
G1 X194.264 Y128.097 E19.419
G1 X194.427 Y127.215 E19.49059
G1 X194.552 Y126.141 E19.5769
G1 X194.6 Y124.991 E19.66878
G1 X194.599 Y94.951 E22.0667
G1 X194.592 Y94.554 E22.0984
G1 X194.511 Y93.397 E22.19098
G1 X194.367 Y92.422 E22.26966
G1 X194.122 Y91.303 E22.36109
G1 X193.784 Y90.199 E22.45326
G1 X193.4 Y89.21 E22.53795
G1 X192.983 Y88.324 E22.61611
G1 X192.416 Y87.326 E22.70774
G1 X191.876 Y86.51 E22.78584
G1 X191.211 Y85.647 E22.87281
G1 X190.446 Y84.804 E22.96368
G1 X189.795 Y84.177 E23.03583
G1 X188.923 Y83.444 E23.12676
G1 X188.041 Y82.815 E23.21324
G1 X187.069 Y82.23 E23.3038
G1 X186.202 Y81.783 E23.38166
G1 X185.294 Y81.397 E23.46042
G1 X184.209 Y81.022 E23.55205
G1 X183.097 Y80.736 E23.64371
G1 X182.132 Y80.557 E23.72205
G1 X181.14 Y80.448 E23.80171
G1 X180.006 Y80.401 E23.89231
G1 X168.525 Y80.399 E24.80878
G1 X167.633 Y80.321 E24.88025
G1 X166.962 Y80.161 E24.93531
G1 X166.343 Y79.924 E24.98822
G1 X165.729 Y79.599 E25.04368
G1 X165.151 Y79.19 E25.1002
G1 X164.661 Y78.739 E25.15336
G1 X164.223 Y78.218 E25.20769
G1 X163.853 Y77.647 E25.262
G1 X163.668 Y77.33 E25.2913
G1 X163.124 Y76.508 E25.36999
G1 X162.458 Y75.645 E25.457
G1 X161.694 Y74.804 E25.5477
G1 X161.045 Y74.177 E25.61973
G1 X160.176 Y73.447 E25.71033
G1 X159.298 Y72.818 E25.79654
G1 X158.32 Y72.23 E25.88764
G1 X157.44 Y71.778 E25.9666
G1 X156.455 Y71.36 E26.05202
G1 X155.451 Y71.02 E26.13663
G1 X154.347 Y70.736 E26.22763
G1 X153.465 Y70.573 E26.29923
G1 X152.391 Y70.448 E26.38554
G1 X151.258 Y70.402 E26.47605
G1 X141.2 Y70.401 E27.27892
G1 X140.804 Y70.408 E27.31054
G1 X139.645 Y70.489 E27.40328
G1 X138.673 Y70.633 E27.48172
G1 X137.553 Y70.878 E27.57324
G1 X136.449 Y71.216 E27.6654
G1 X135.462 Y71.6 E27.74994
G1 X134.574 Y72.017 E27.82825
G1 X133.576 Y72.584 E27.91987
G1 X132.757 Y73.126 E27.99827
G1 X131.896 Y73.789 E28.08501
G1 X131.054 Y74.554 E28.17582
G1 X130.427 Y75.205 E28.24797
G1 X129.695 Y76.076 E28.33879
G1 X129.066 Y76.956 E28.42514
G1 X128.544 Y77.812 E28.50517
G1 X128.122 Y78.411 E28.56366
G1 X127.651 Y78.918 E28.6189
G1 X127.108 Y79.37 E28.67529
G1 X126.534 Y79.733 E28.72951
G1 X125.934 Y80.016 E28.78246
G1 X125.293 Y80.228 E28.83635
G1 X124.589 Y80.36 E28.89353
G1 X123.959 Y80.4 E28.94392
G1 X100.59 Y80.399 E30.80934
G1 X99.679 Y80.318 E30.88234
G1 X99.011 Y80.156 E30.93721
G1 X98.394 Y79.918 E30.99
G1 X97.776 Y79.587 E31.04596
G1 X97.216 Y79.19 E31.10076
G1 X96.726 Y78.739 E31.15392
G1 X96.288 Y78.218 E31.20825
G1 X95.918 Y77.647 E31.26256
G1 X95.733 Y77.33 E31.29186
G1 X95.189 Y76.508 E31.37054
G1 X94.523 Y75.645 E31.45756
G1 X93.759 Y74.804 E31.54826
G1 X93.11 Y74.177 E31.62029
G1 X92.241 Y73.447 E31.71088
G1 X91.363 Y72.818 E31.7971
G1 X90.385 Y72.23 E31.88819
G1 X89.505 Y71.778 E31.96716
G1 X88.52 Y71.36 E32.05257
G1 X87.516 Y71.02 E32.13719
G1 X86.412 Y70.736 E32.22818
G1 X85.53 Y70.573 E32.29978
G1 X84.456 Y70.448 E32.38609
G1 X83.324 Y70.402 E32.47653
G1 X73.265 Y70.401 E33.27948
G1 X72.869 Y70.408 E33.3111
G1 X71.71 Y70.489 E33.40384
G1 X70.738 Y70.633 E33.48227
G1 X69.618 Y70.878 E33.57379
G1 X68.514 Y71.216 E33.66596
G1 X67.527 Y71.6 E33.75049
G1 X66.639 Y72.017 E33.82881
G1 X65.641 Y72.584 E33.92043
G1 X64.822 Y73.126 E33.99882
G1 X63.961 Y73.789 E34.08557
G1 X63.119 Y74.554 E34.17638
G1 X62.492 Y75.205 E34.24853
G1 X61.76 Y76.076 E34.33935
G1 X61.131 Y76.956 E34.42569
G1 X60.609 Y77.812 E34.50572
G1 X60.187 Y78.411 E34.56421
G1 X59.716 Y78.918 E34.61945
G1 X59.21 Y79.343 E34.6722
G1 X58.617 Y79.724 E34.72847
G1 X58.004 Y80.014 E34.7826
G1 X57.368 Y80.225 E34.83609
G1 X56.696 Y80.355 E34.89072
G1 X56.024 Y80.4 E34.94449
G1 X39.948 Y80.401 E36.22774
G1 X39.554 Y80.408 E36.2592
G1 X38.397 Y80.489 E36.35178
G1 X37.422 Y80.633 E36.43045
G1 X36.297 Y80.879 E36.52238
G1 X35.289 Y81.182 E36.6064
G1 X34.212 Y81.6 E36.69862
G1 X33.391 Y81.986 E36.77103
G0 F12000 X32.922 Y82.702
G1 F1800 X94.49 Y144.27 E43.72136
G0 F12000 X93.377 Y145.42
G1 F1800 X31.553 Y83.596 E50.70059
G0 F12000 X30.32 Y84.626
G1 F1800 X92.14 Y146.446 E57.67936
G0 F12000 X90.762 Y147.33
G1 F1800 X29.213 Y85.781 E64.62755
G0 F12000 X28.231 Y87.062
G1 F1800 X89.25 Y148.081 E71.5159
G0 F12000 X87.57 Y148.664
G1 F1800 X27.392 Y88.486 E78.30931
G0 F12000 X26.693 Y90.05
G1 F1800 X85.697 Y149.054 E84.97019
G0 F12000 X83.579 Y149.198
G1 F1800 X26.176 Y91.795 E91.45034
G0 F12000 X25.863 Y93.745
G1 F1800 X81.316 Y149.198 E97.71035
G0 F12000 X79.053 Y149.198
G1 F1800 X25.799 Y95.944 E103.72213
G0 F12000 X25.799 Y98.207
G1 F1800 X76.79 Y149.198 E109.47843
G0 F12000 X74.527 Y149.198
G1 F1800 X25.799 Y100.469 E114.97932
G0 F12000 X25.799 Y102.732
G1 F1800 X72.163 Y149.096 E120.21329
G0 F12000 X69.264 Y148.46
G1 F1800 X25.799 Y104.995 E125.12
G0 F12000 X25.799 Y107.258
G1 F1800 X57.946 Y139.405 E128.74903
G0 F12000 X55.476 Y139.198
G1 F1800 X25.799 Y109.52 E132.09928
G0 F12000 X25.799 Y111.783
G1 F1800 X53.214 Y139.198 E135.19412
G0 F12000 X50.951 Y139.198
G1 F1800 X25.799 Y114.046 E138.0335
G0 F12000 X25.799 Y116.309
G1 F1800 X48.688 Y139.198 E140.61741
G0 F12000 X46.425 Y139.198
G1 F1800 X25.799 Y118.571 E142.9459
G0 F12000 X25.799 Y120.834
G1 F1800 X44.163 Y139.198 E145.01899
G0 F12000 X41.9 Y139.198
G1 F1800 X25.799 Y123.097 E146.83661
G0 F12000 X25.806 Y125.367
G1 F1800 X39.621 Y139.181 E148.39611
G0 F12000 X37.062 Y138.885
G1 F1800 X26.123 Y127.946 E149.631
G0 F12000 X27.343 Y131.429
G1 F1800 X33.555 Y137.641 E150.33227
G1 F2700 E145.33227
G0 F12000 X32.885 Y138.945
G0 X31.261 Y137.996
G0 X29.617 Y136.725
G0 X28.66 Y135.802
G0 X27.327 Y134.201
G0 X26.585 Y133.082
G0 X25.617 Y131.2
G0 X25.144 Y129.958
G0 X24.615 Y127.934
G0 X24.424 Y126.621
G0 X24.335 Y124.947
G0 X24.374 Y93.943
G0 X24.521 Y92.617
G0 X24.973 Y90.59
G0 X25.413 Y89.3
G0 X26.295 Y87.42
G0 X27.004 Y86.261
G0 X28.275 Y84.617
G0 X29.198 Y83.66
G0 X30.799 Y82.327
G0 X31.918 Y81.585
G0 X33.783 Y80.625
G0 X34.427 Y81.945
G1 F2700 E150.33227
G1 F1800 X95.477 Y142.994 E157.22406
G0 F12000 X96.365 Y141.62
G1 F1800 X36.101 Y81.356 E164.02718
G0 F12000 X37.965 Y80.957
G1 F1800 X97.468 Y140.46 E170.74439
G0 F12000 X98.893 Y139.622
G1 F1800 X40.07 Y80.799 E177.38484
G0 F12000 X42.333 Y80.799
G1 F1800 X100.751 Y139.218 E183.97963
G0 F12000 X102.996 Y139.2
G1 F1800 X44.595 Y80.799 E190.57244
G0 F12000 X46.858 Y80.799
G1 F1800 X105.259 Y139.2 E197.16525
G0 F12000 X107.521 Y139.2
G1 F1800 X49.12 Y80.798 E203.75811
G0 F12000 X51.383 Y80.798
G1 F1800 X109.784 Y139.2 E210.35098
G0 F12000 X112.047 Y139.2
G1 F1800 X53.646 Y80.798 E216.94385
G0 F12000 X55.908 Y80.798
G1 F1800 X114.31 Y139.2 E223.53677
G0 F12000 X116.572 Y139.2
G1 F1800 X57.855 Y80.482 E230.16531
G0 F12000 X59.359 Y79.724
G1 F1800 X118.835 Y139.2 E236.87947
G0 F12000 X121.098 Y139.2
G1 F1800 X60.523 Y78.625 E243.7177
G0 F12000 X61.415 Y77.254
G1 F1800 X123.361 Y139.2 E250.7107
G0 F12000 X126.018 Y139.594
G1 F1800 X62.38 Y75.957 E257.89465
G0 F12000 X63.465 Y74.779
G1 F1800 X137.322 Y148.636 E266.23227
G0 F12000 X140.096 Y149.147
G1 F1800 X64.685 Y73.736 E274.74531
G0 F12000 X66.032 Y72.82
G1 F1800 X142.409 Y149.198 E283.36747
G0 F12000 X144.673 Y149.198
G1 F1800 X67.519 Y72.044 E292.07728
G0 F12000 X69.169 Y71.432
G1 F1800 X146.936 Y149.198 E300.85623
G0 F12000 X149.199 Y149.199
G1 F1800 X70.998 Y70.998 E309.68424
G0 F12000 X73.068 Y70.805
G1 F1800 X151.458 Y149.195 E318.53358
G0 F12000 X153.531 Y149.005
G1 F1800 X75.327 Y70.801 E327.36192
G0 F12000 X77.59 Y70.801
G1 F1800 X155.363 Y148.575 E336.14166
G0 F12000 X157.017 Y147.966
G1 F1800 X79.852 Y70.801 E344.85272
G0 F12000 X82.115 Y70.801
G1 F1800 X158.506 Y147.192 E353.47639
G0 F12000 X159.856 Y146.279
G1 F1800 X84.422 Y70.846 E361.99198
G0 F12000 X87.188 Y71.349
G1 F1800 X161.078 Y145.239 E370.33332
G0 F12000 X162.165 Y144.063
G1 F1800 X98.481 Y80.379 E377.52252
G0 F12000 X101.165 Y80.8
G1 F1800 X163.133 Y142.769 E384.51806
G0 F12000 X164.024 Y141.396
G1 F1800 X103.427 Y80.8 E391.35872
G0 F12000 X105.69 Y80.8
G1 F1800 X165.18 Y140.29 E398.07446
G0 F12000 X166.679 Y139.527
G1 F1800 X107.953 Y80.8 E404.70402
G0 F12000 X110.216 Y80.8
G1 F1800 X168.615 Y139.2 E411.29666
G0 F12000 X170.878 Y139.2
G1 F1800 X112.478 Y80.799 E417.88941
G0 F12000 X114.74 Y80.799
G1 F1800 X173.141 Y139.2 E424.48222
G0 F12000 X175.403 Y139.199
G1 F1800 X117.003 Y80.799 E431.07492
G0 F12000 X119.266 Y80.799
G1 F1800 X177.666 Y139.199 E437.66761
G0 F12000 X179.928 Y139.199
G1 F1800 X121.529 Y80.799 E444.26025
G0 F12000 X123.791 Y80.799
G1 F1800 X182.034 Y139.041 E450.83517
G0 F12000 X183.897 Y138.643
G1 F1800 X125.75 Y80.495 E457.39936
G0 F12000 X127.262 Y79.744
G1 F1800 X185.571 Y138.054 E463.98184
G0 F12000 X187.077 Y137.296
G1 F1800 X128.436 Y78.656 E470.60169
G0 F12000 X129.33 Y77.287
G1 F1800 X188.445 Y136.402 E477.2751
G0 F12000 X189.678 Y135.372
G1 F1800 X130.291 Y75.985 E483.97922
G0 F12000 X131.373 Y74.804
G1 F1800 X190.785 Y134.217 E490.68621
G0 F12000 X191.768 Y132.936
G1 F1800 X132.591 Y73.759 E497.36663
G0 F12000 X133.934 Y72.84
G1 F1800 X192.606 Y131.512 E503.99003
G0 F12000 X193.305 Y129.948
G1 F1800 X135.419 Y72.062 E510.5247
G0 F12000 X137.064 Y71.445
G1 F1800 X193.822 Y128.203 E516.93203
G0 F12000 X194.136 Y126.253
G1 F1800 X138.888 Y71.006 E523.16885
G0 F12000 X140.951 Y70.806
G1 F1800 X194.199 Y124.054 E529.17994
G0 F12000 X194.199 Y121.792
G1 F1800 X143.209 Y70.801 E534.93619
G0 F12000 X145.472 Y70.801
G1 F1800 X194.199 Y119.529 E540.43697
G0 F12000 X194.199 Y117.266
G1 F1800 X147.735 Y70.801 E545.68229
G0 F12000 X149.997 Y70.801
G1 F1800 X194.199 Y115.003 E550.67219
G0 F12000 X194.199 Y112.741
G1 F1800 X152.303 Y70.845 E555.40177
G0 F12000 X155.052 Y71.331
G1 F1800 X194.199 Y110.478 E559.82102
G0 F12000 X194.199 Y108.215
G1 F1800 X166.329 Y80.345 E562.96723
G0 F12000 X169.046 Y80.799
G1 F1800 X194.199 Y105.952 E565.80672
G0 F12000 X194.199 Y103.69
G1 F1800 X171.309 Y80.799 E568.3908
G0 F12000 X173.572 Y80.8
G1 F1800 X194.199 Y101.427 E570.71935
G0 F12000 X194.199 Y99.164
G1 F1800 X175.835 Y80.8 E572.79244
G0 F12000 X178.098 Y80.801
G1 F1800 X194.199 Y96.901 E574.61
G0 F12000 X194.192 Y94.632
G1 F1800 X180.377 Y80.817 E576.16956
G0 F12000 X182.937 Y81.113
G1 F1800 X193.875 Y92.052 E577.40439
G0 F12000 X192.656 Y88.57
G1 F1800 X186.444 Y82.358 E578.10565
G1 F2700 E573.10565
G0 F12000 X186.749 Y80.868
G0 X185.485 Y80.331
G0 X183.688 Y79.792
G0 X164.16 Y76.143
G0 X162.939 Y76.955
G1 F2700 E578.10565
G1 F1800 X159.287 Y73.302 E578.51798
G1 F2700 E573.51798
G0 F12000 X159.793 Y71.874
G0 X157.999 Y70.868
G0 X156.735 Y70.331
G0 X154.738 Y69.732
G0 X153.422 Y69.491
