;FLAVOR:Marlin
;TIME:632
;Filament used: 0.519321m
;Layer height: 0.3
;MINX:97.764
;MINY:97.764
;MINZ:0.2
;MAXX:137.236
;MAXY:137.236
;MAXZ:8.6
;Generated with Cura_SteamEngine main
M140 S60
M105
M190 S60
M104 S200
M105
M109 S200
M82 ;absolute extrusion mode
; Ender 3 Custom Start G-code
G92 E0 ; Reset Extruder
G28 ; Home all axes
G1 Z2.0 F3000 ; Move Z Axis up little to prevent scratching of Heat Bed
G1 X0.1 Y20 Z0.3 F5000.0 ; Move to start position
G1 X0.1 Y200.0 Z0.3 F1500.0 E15 ; Draw the first line
G1 X0.4 Y200.0 Z0.3 F5000.0 ; Move to side a little
G1 X0.4 Y20 Z0.3 F1500.0 E30 ; Draw the second line
G92 E0 ; Reset Extruder
G1 Z2.0 F3000 ; Move Z Axis up little to prevent scratching of Heat Bed
G1 X5 Y20 Z0.3 F5000.0 ; Move over to prevent blob squish
G92 E0
G92 E0
G1 F2700 E-5
;LAYER_COUNT:29
;LAYER:0
M107
G0 F6000 X103.393 Y103.698 Z0.2
G0 X97.764 Y117.596
;TYPE:SKIRT
G1 F2700 E0
G1 F1200 X97.775 Y116.857 E0.02458
G1 X97.804 Y116.253 E0.04469
G1 X97.854 Y115.602 E0.06641
G1 X97.901 Y115.166 E0.081
G1 X97.986 Y114.546 E0.10181
G1 X98.08 Y113.979 E0.12093
G1 X98.227 Y113.246 E0.14579
G1 X98.354 Y112.709 E0.16414
G1 X98.507 Y112.134 E0.18393
G1 X98.646 Y111.662 E0.2003
G1 X98.863 Y111.004 E0.22334
G1 X99.055 Y110.477 E0.242
G1 X99.35 Y109.747 E0.26819
G1 X99.62 Y109.144 E0.29016
G1 X99.91 Y108.546 E0.31227
G1 X100.109 Y108.165 E0.32656
G1 X100.421 Y107.607 E0.34783
G1 X100.706 Y107.131 E0.36628
G1 X101.075 Y106.556 E0.389
G1 X101.386 Y106.103 E0.40728
G1 X101.786 Y105.557 E0.42979
G1 X102.118 Y105.132 E0.44773
G1 X102.57 Y104.591 E0.47118
G1 X102.926 Y104.191 E0.48899
G1 X103.393 Y103.698 E0.51157
G1 X103.809 Y103.285 E0.53107
G1 X104.278 Y102.846 E0.55243
G1 X104.603 Y102.559 E0.56686
G1 X105.115 Y102.133 E0.58901
G1 X105.571 Y101.777 E0.60825
G1 X106.168 Y101.343 E0.6328
G1 X106.702 Y100.981 E0.65426
G1 X107.234 Y100.642 E0.67524
G1 X107.522 Y100.47 E0.68639
G1 X108.106 Y100.145 E0.70862
G1 X108.763 Y99.805 E0.73323
G1 X109.483 Y99.465 E0.75971
G1 X109.898 Y99.287 E0.77473
G1 X110.405 Y99.084 E0.79289
G1 X110.879 Y98.908 E0.80971
G1 X111.499 Y98.698 E0.83148
G1 X112.004 Y98.544 E0.84904
G1 X112.667 Y98.365 E0.87188
G1 X113.205 Y98.237 E0.89028
G1 X113.889 Y98.097 E0.9135
G1 X114.442 Y98.002 E0.93216
G1 X115.155 Y97.903 E0.9561
G1 X115.707 Y97.845 E0.97456
G1 X116.363 Y97.796 E0.99644
G1 X116.853 Y97.774 E1.01276
G1 X117.514 Y97.764 E1.03475
G1 X118.104 Y97.773 E1.05437
G1 X118.794 Y97.806 E1.07735
G1 X119.305 Y97.846 E1.09439
G1 X119.96 Y97.917 E1.11631
G1 X120.428 Y97.982 E1.13202
G1 X121.018 Y98.08 E1.15192
G1 X121.552 Y98.184 E1.17001
G1 X122.296 Y98.356 E1.19541
G1 X122.923 Y98.524 E1.217
G1 X123.578 Y98.721 E1.23975
G1 X123.971 Y98.853 E1.25354
G1 X124.593 Y99.083 E1.27559
G1 X125.179 Y99.32 E1.29662
G1 X125.738 Y99.564 E1.3169
G1 X126.127 Y99.747 E1.3312
G1 X126.786 Y100.085 E1.35584
G1 X127.362 Y100.405 E1.37775
G1 X127.972 Y100.77 E1.40139
G1 X128.387 Y101.037 E1.41781
G1 X128.921 Y101.404 E1.43936
G1 X129.347 Y101.715 E1.4569
G1 X129.891 Y102.139 E1.47984
G1 X130.323 Y102.498 E1.49852
G1 X130.792 Y102.91 E1.51929
G1 X131.129 Y103.224 E1.53461
G1 X131.615 Y103.706 E1.55737
G1 X132.031 Y104.145 E1.57749
G1 X132.513 Y104.688 E1.60164
G1 X132.868 Y105.116 E1.62013
G1 X133.276 Y105.641 E1.64225
G1 X133.563 Y106.033 E1.65841
G1 X133.921 Y106.552 E1.67938
G1 X134.215 Y107.006 E1.69737
G1 X134.581 Y107.613 E1.72094
G1 X134.858 Y108.108 E1.73981
G1 X135.169 Y108.707 E1.76226
G1 X135.392 Y109.17 E1.77935
G1 X135.655 Y109.758 E1.80077
G1 X135.857 Y110.249 E1.81843
G1 X136.12 Y110.955 E1.84349
G1 X136.319 Y111.552 E1.86442
G1 X136.529 Y112.264 E1.88911
G1 X136.66 Y112.768 E1.90643
G1 X136.794 Y113.348 E1.92623
G1 X136.894 Y113.841 E1.94296
G1 X137.013 Y114.537 E1.96644
G1 X137.09 Y115.1 E1.98534
G1 X137.159 Y115.749 E2.00705
G1 X137.197 Y116.244 E2.02356
G1 X137.227 Y116.899 E2.04537
G1 X137.236 Y117.428 E2.06297
G1 X137.225 Y118.143 E2.08675
G1 X137.196 Y118.747 E2.10686
G1 X137.146 Y119.398 E2.12858
G1 X137.099 Y119.834 E2.14317
G1 X137.014 Y120.454 E2.16398
G1 X136.92 Y121.021 E2.1831
G1 X136.773 Y121.754 E2.20796
G1 X136.646 Y122.291 E2.22632
G1 X136.495 Y122.86 E2.2459
G1 X136.361 Y123.316 E2.2617
G1 X136.147 Y123.968 E2.28453
G1 X135.955 Y124.497 E2.30324
G1 X135.662 Y125.222 E2.32925
G1 X135.387 Y125.839 E2.35172
G1 X135.094 Y126.447 E2.37417
G1 X134.899 Y126.821 E2.3882
G1 X134.583 Y127.386 E2.40973
G1 X134.295 Y127.867 E2.42837
G1 X133.95 Y128.406 E2.44966
G1 X133.66 Y128.832 E2.4668
G1 X133.242 Y129.406 E2.49042
G1 X132.888 Y129.86 E2.50957
G1 X132.435 Y130.404 E2.53311
G1 X132.083 Y130.8 E2.55073
G1 X131.611 Y131.298 E2.57355
G1 X131.191 Y131.715 E2.59324
G1 X130.722 Y132.154 E2.61461
G1 X130.397 Y132.441 E2.62903
G1 X129.887 Y132.865 E2.65109
G1 X129.435 Y133.218 E2.67016
G1 X128.84 Y133.652 E2.69466
G1 X128.302 Y134.017 E2.71628
G1 X127.766 Y134.358 E2.73741
G1 X127.478 Y134.53 E2.74857
G1 X126.894 Y134.855 E2.77079
G1 X126.237 Y135.195 E2.7954
G1 X125.514 Y135.537 E2.822
G1 X125.101 Y135.714 E2.83695
G1 X124.602 Y135.913 E2.85481
G1 X124.126 Y136.09 E2.8717
G1 X123.501 Y136.302 E2.89366
G1 X122.996 Y136.456 E2.91122
G1 X122.329 Y136.636 E2.93419
G1 X121.79 Y136.764 E2.95262
G1 X121.124 Y136.901 E2.97523
G1 X120.575 Y136.996 E2.99377
G1 X119.842 Y137.097 E3.01838
G1 X119.287 Y137.155 E3.03694
G1 X118.637 Y137.204 E3.05862
G1 X118.147 Y137.226 E3.07493
G1 X117.486 Y137.236 E3.09692
G1 X116.896 Y137.227 E3.11654
G1 X116.206 Y137.194 E3.13952
G1 X115.695 Y137.154 E3.15657
G1 X115.04 Y137.083 E3.17848
G1 X114.572 Y137.018 E3.19419
G1 X113.982 Y136.92 E3.21409
G1 X113.448 Y136.816 E3.23218
G1 X112.704 Y136.644 E3.25758
G1 X112.077 Y136.476 E3.27917
G1 X111.422 Y136.279 E3.30192
G1 X111.029 Y136.147 E3.31571
G1 X110.407 Y135.917 E3.33776
G1 X109.821 Y135.68 E3.35879
G1 X109.262 Y135.436 E3.37908
G1 X108.873 Y135.253 E3.39337
G1 X108.214 Y134.915 E3.41801
G1 X107.629 Y134.59 E3.44027
G1 X107.007 Y134.217 E3.46439
G1 X106.601 Y133.955 E3.48046
G1 X106.082 Y133.598 E3.50141
G1 X105.653 Y133.285 E3.51907
G1 X105.1 Y132.854 E3.54239
G1 X104.671 Y132.497 E3.56096
G1 X104.208 Y132.09 E3.58146
G1 X103.871 Y131.776 E3.59678
G1 X103.385 Y131.294 E3.61955
G1 X102.969 Y130.855 E3.63966
G1 X102.487 Y130.312 E3.66381
G1 X102.132 Y129.884 E3.6823
G1 X101.726 Y129.363 E3.70427
G1 X101.438 Y128.97 E3.72048
G1 X101.072 Y128.438 E3.74196
G1 X100.778 Y127.983 E3.75997
G1 X100.419 Y127.386 E3.78314
G1 X100.143 Y126.893 E3.80194
G1 X99.831 Y126.293 E3.82443
G1 X99.608 Y125.83 E3.84152
G1 X99.345 Y125.242 E3.86295
G1 X99.143 Y124.751 E3.8806
G1 X98.886 Y124.061 E3.90509
G1 X98.697 Y123.497 E3.92488
G1 X98.503 Y122.854 E3.94722
G1 X98.383 Y122.407 E3.96261
G1 X98.241 Y121.81 E3.98302
G1 X98.126 Y121.261 E4.00168
G1 X98.001 Y120.548 E4.02575
G1 X97.923 Y119.997 E4.04426
G1 X97.851 Y119.361 E4.06555
G1 X97.81 Y118.865 E4.0821
G1 X97.775 Y118.17 E4.10525
G1 X97.764 Y117.596 E4.12434
G0 F6000 X98.164 Y117.588
G1 F1200 X98.174 Y116.877 E4.14799
G1 X98.203 Y116.273 E4.16811
G1 X98.252 Y115.645 E4.18906
G1 X98.299 Y115.209 E4.20364
G1 X98.381 Y114.611 E4.22372
G1 X98.475 Y114.044 E4.24283
G1 X98.617 Y113.338 E4.26679
G1 X98.744 Y112.801 E4.28514
G1 X98.891 Y112.247 E4.3042
G1 X99.03 Y111.775 E4.32057
G1 X99.238 Y111.14 E4.34279
G1 X99.43 Y110.613 E4.36145
G1 X99.716 Y109.91 E4.38669
G1 X99.986 Y109.307 E4.40866
G1 X100.264 Y108.732 E4.42991
G1 X100.463 Y108.351 E4.4442
G1 X100.765 Y107.813 E4.46472
G1 X101.05 Y107.337 E4.48318
G1 X101.405 Y106.783 E4.50506
G1 X101.716 Y106.33 E4.52334
G1 X102.102 Y105.804 E4.54504
G1 X102.434 Y105.379 E4.56297
G1 X102.869 Y104.857 E4.58557
G1 X103.225 Y104.457 E4.60338
G1 X103.675 Y103.982 E4.62515
G1 X104.091 Y103.569 E4.64464
G1 X104.543 Y103.146 E4.66523
G1 X104.868 Y102.859 E4.67966
G1 X105.361 Y102.449 E4.70098
G1 X105.817 Y102.093 E4.72022
G1 X106.392 Y101.674 E4.74389
G1 X106.926 Y101.312 E4.76534
G1 X107.439 Y100.985 E4.78558
G1 X107.727 Y100.813 E4.79674
G1 X108.29 Y100.5 E4.81816
G1 X108.947 Y100.16 E4.84276
G1 X109.641 Y99.832 E4.8683
G1 X110.056 Y99.654 E4.88331
G1 X110.544 Y99.459 E4.90079
G1 X111.018 Y99.283 E4.91761
G1 X111.616 Y99.081 E4.9386
G1 X112.121 Y98.927 E4.95616
G1 X112.76 Y98.754 E4.97818
G1 X113.298 Y98.626 E4.99658
G1 X113.956 Y98.491 E5.01892
G1 X114.509 Y98.396 E5.03758
G1 X115.196 Y98.301 E5.06065
G1 X115.748 Y98.243 E5.07911
G1 X116.381 Y98.196 E5.10022
G1 X116.871 Y98.174 E5.11653
G1 X117.508 Y98.164 E5.13772
G1 X118.098 Y98.173 E5.15735
G1 X118.763 Y98.204 E5.17949
G1 X119.274 Y98.244 E5.19654
G1 X119.905 Y98.313 E5.21765
G1 X120.373 Y98.378 E5.23336
G1 X120.941 Y98.472 E5.25251
G1 X121.475 Y98.576 E5.27061
G1 X122.192 Y98.742 E5.29509
G1 X122.819 Y98.91 E5.31668
G1 X123.451 Y99.101 E5.33864
G1 X123.844 Y99.233 E5.35242
G1 X124.443 Y99.454 E5.37366
G1 X125.029 Y99.691 E5.39468
G1 X125.567 Y99.926 E5.41421
G1 X125.956 Y100.109 E5.42851
G1 X126.592 Y100.435 E5.45228
G1 X127.168 Y100.755 E5.47419
G1 X127.755 Y101.107 E5.49696
G1 X128.17 Y101.374 E5.51337
G1 X128.685 Y101.727 E5.53414
G1 X129.111 Y102.038 E5.55168
G1 X129.636 Y102.447 E5.57382
G1 X130.068 Y102.806 E5.5925
G1 X130.519 Y103.203 E5.61248
G1 X130.856 Y103.517 E5.6278
G1 X131.324 Y103.981 E5.64972
G1 X131.74 Y104.42 E5.66984
G1 X132.205 Y104.944 E5.69314
G1 X132.56 Y105.372 E5.71163
G1 X132.954 Y105.877 E5.73294
G1 X133.241 Y106.269 E5.7491
G1 X133.585 Y106.769 E5.76928
G1 X133.879 Y107.223 E5.78727
G1 X134.232 Y107.809 E5.81003
G1 X134.509 Y108.304 E5.82889
G1 X134.809 Y108.88 E5.85049
G1 X135.032 Y109.343 E5.86759
G1 X135.285 Y109.91 E5.88824
G1 X135.487 Y110.401 E5.90589
G1 X135.74 Y111.082 E5.93006
G1 X135.939 Y111.679 E5.95099
G1 X136.142 Y112.364 E5.97475
G1 X136.273 Y112.868 E5.99207
G1 X136.402 Y113.428 E6.01118
G1 X136.502 Y113.921 E6.02792
G1 X136.616 Y114.592 E6.05055
G1 X136.693 Y115.155 E6.06945
G1 X136.76 Y115.78 E6.09036
G1 X136.798 Y116.275 E6.10687
G1 X136.827 Y116.906 E6.12788
G1 X136.836 Y117.435 E6.14548
G1 X136.826 Y118.123 E6.16836
G1 X136.797 Y118.727 E6.18848
G1 X136.748 Y119.355 E6.20943
G1 X136.701 Y119.791 E6.22401
G1 X136.619 Y120.389 E6.24409
G1 X136.525 Y120.956 E6.2632
G1 X136.383 Y121.662 E6.28716
G1 X136.256 Y122.199 E6.30551
G1 X136.111 Y122.748 E6.32439
G1 X135.977 Y123.204 E6.3402
G1 X135.771 Y123.831 E6.36215
G1 X135.579 Y124.36 E6.38087
G1 X135.297 Y125.059 E6.40594
G1 X135.022 Y125.676 E6.42841
G1 X134.739 Y126.262 E6.45005
G1 X134.544 Y126.636 E6.46408
G1 X134.239 Y127.18 E6.48482
G1 X133.951 Y127.661 E6.50347
G1 X133.619 Y128.181 E6.52399
G1 X133.329 Y128.607 E6.54113
G1 X132.926 Y129.16 E6.56389
G1 X132.572 Y129.614 E6.58304
G1 X132.136 Y130.138 E6.60571
G1 X131.784 Y130.534 E6.62333
G1 X131.329 Y131.014 E6.64533
G1 X130.909 Y131.431 E6.66501
G1 X130.457 Y131.854 E6.6856
G1 X130.132 Y132.141 E6.70003
G1 X129.64 Y132.55 E6.72131
G1 X129.188 Y132.903 E6.74038
G1 X128.615 Y133.321 E6.76397
G1 X128.077 Y133.686 E6.78559
G1 X127.561 Y134.015 E6.80595
G1 X127.273 Y134.187 E6.81711
G1 X126.71 Y134.5 E6.83853
G1 X126.053 Y134.84 E6.86313
G1 X125.357 Y135.169 E6.88874
G1 X124.944 Y135.346 E6.90368
G1 X124.462 Y135.538 E6.92094
G1 X123.986 Y135.715 E6.93783
G1 X123.384 Y135.919 E6.95897
G1 X122.879 Y136.073 E6.97653
G1 X122.236 Y136.247 E6.99869
G1 X121.697 Y136.375 E7.01711
G1 X121.055 Y136.507 E7.03891
G1 X120.506 Y136.602 E7.05744
G1 X119.801 Y136.7 E7.08112
G1 X119.246 Y136.758 E7.09968
G1 X118.619 Y136.804 E7.12059
G1 X118.129 Y136.826 E7.1369
G1 X117.492 Y136.836 E7.15809
G1 X116.902 Y136.827 E7.17772
G1 X116.237 Y136.796 E7.19986
G1 X115.726 Y136.756 E7.21691
G1 X115.095 Y136.687 E7.23802
G1 X114.627 Y136.622 E7.25374
G1 X114.059 Y136.528 E7.27288
G1 X113.525 Y136.424 E7.29098
G1 X112.808 Y136.258 E7.31546
G1 X112.181 Y136.09 E7.33705
G1 X111.549 Y135.899 E7.35901
G1 X111.156 Y135.767 E7.37279
G1 X110.557 Y135.546 E7.39403
G1 X109.971 Y135.309 E7.41505
G1 X109.433 Y135.074 E7.43458
G1 X109.044 Y134.891 E7.44888
G1 X108.408 Y134.565 E7.47265
G1 X107.823 Y134.24 E7.49491
G1 X107.223 Y133.88 E7.51818
G1 X106.817 Y133.618 E7.53425
G1 X106.317 Y133.275 E7.55442
G1 X105.888 Y132.962 E7.57208
G1 X105.356 Y132.547 E7.59452
G1 X104.927 Y132.19 E7.61309
G1 X104.481 Y131.797 E7.63286
G1 X104.144 Y131.483 E7.64818
G1 X103.676 Y131.019 E7.6701
G1 X103.26 Y130.58 E7.69021
G1 X102.795 Y130.056 E7.71351
G1 X102.44 Y129.628 E7.73201
G1 X102.049 Y129.127 E7.75315
G1 X101.761 Y128.734 E7.76935
G1 X101.408 Y128.221 E7.79006
G1 X101.114 Y127.766 E7.80808
G1 X100.768 Y127.191 E7.8304
G1 X100.492 Y126.698 E7.84919
G1 X100.191 Y126.12 E7.87087
G1 X99.968 Y125.657 E7.88796
G1 X99.715 Y125.09 E7.90861
G1 X99.513 Y124.599 E7.92627
G1 X99.265 Y123.934 E7.94987
G1 X99.076 Y123.37 E7.96966
G1 X98.889 Y122.75 E7.9912
G1 X98.769 Y122.303 E8.00659
G1 X98.632 Y121.728 E8.02625
G1 X98.517 Y121.179 E8.04491
G1 X98.397 Y120.492 E8.0681
G1 X98.319 Y119.941 E8.08661
G1 X98.25 Y119.328 E8.10713
G1 X98.209 Y118.832 E8.12368
G1 X98.175 Y118.162 E8.146
G1 X98.164 Y117.588 E8.16509
G0 F6000 X98.564 Y117.58
G1 F1200 X98.574 Y116.896 E8.18784
G1 X98.603 Y116.292 E8.20796
G1 X98.65 Y115.688 E8.22811
G1 X98.697 Y115.252 E8.24269
G1 X98.775 Y114.677 E8.26199
G1 X98.869 Y114.11 E8.28111
G1 X99.006 Y113.43 E8.30418
G1 X99.133 Y112.893 E8.32253
G1 X99.274 Y112.36 E8.34087
G1 X99.413 Y111.888 E8.35723
G1 X99.614 Y111.277 E8.37863
G1 X99.806 Y110.75 E8.39728
G1 X100.081 Y110.074 E8.42156
G1 X100.351 Y109.471 E8.44353
G1 X100.619 Y108.917 E8.464
G1 X100.818 Y108.536 E8.4783
G1 X101.108 Y108.018 E8.49804
G1 X101.393 Y107.542 E8.51649
G1 X101.735 Y107.009 E8.53756
G1 X102.046 Y106.556 E8.55583
G1 X102.417 Y106.05 E8.5767
G1 X102.749 Y105.625 E8.59464
G1 X103.168 Y105.123 E8.61639
G1 X103.524 Y104.723 E8.6342
G1 X103.957 Y104.265 E8.65516
G1 X104.373 Y103.852 E8.67466
G1 X104.807 Y103.445 E8.69445
G1 X105.132 Y103.158 E8.70887
G1 X105.607 Y102.764 E8.72939
G1 X106.063 Y102.408 E8.74863
G1 X106.617 Y102.005 E8.77142
G1 X107.151 Y101.643 E8.79288
G1 X107.644 Y101.329 E8.81232
G1 X107.932 Y101.157 E8.82347
G1 X108.474 Y100.855 E8.84411
G1 X109.131 Y100.515 E8.86872
G1 X109.798 Y100.2 E8.89325
G1 X110.213 Y100.022 E8.90827
G1 X110.684 Y99.834 E8.92514
G1 X111.158 Y99.658 E8.94195
G1 X111.733 Y99.464 E8.96214
G1 X112.238 Y99.31 E8.9797
G1 X112.852 Y99.143 E9.00086
G1 X113.39 Y99.015 E9.01925
G1 X114.024 Y98.885 E9.04078
G1 X114.577 Y98.79 E9.05944
G1 X115.238 Y98.699 E9.08163
G1 X115.79 Y98.641 E9.1001
G1 X116.399 Y98.595 E9.12041
G1 X116.889 Y98.573 E9.13672
G1 X117.502 Y98.564 E9.15711
G1 X118.092 Y98.573 E9.17674
G1 X118.732 Y98.603 E9.19805
G1 X119.243 Y98.643 E9.2151
G1 X119.85 Y98.709 E9.2354
G1 X120.318 Y98.774 E9.25112
G1 X120.865 Y98.865 E9.26956
G1 X121.399 Y98.969 E9.28766
G1 X122.089 Y99.129 E9.31122
G1 X122.716 Y99.297 E9.33281
G1 X123.324 Y99.48 E9.35392
G1 X123.717 Y99.612 E9.36771
G1 X124.293 Y99.825 E9.38814
G1 X124.879 Y100.062 E9.40916
G1 X125.397 Y100.288 E9.42796
G1 X125.786 Y100.471 E9.44226
G1 X126.398 Y100.785 E9.46514
G1 X126.974 Y101.105 E9.48705
G1 X127.539 Y101.443 E9.50895
G1 X127.954 Y101.71 E9.52536
G1 X128.449 Y102.05 E9.54534
G1 X128.875 Y102.361 E9.56288
G1 X129.38 Y102.754 E9.58416
G1 X129.812 Y103.113 E9.60284
G1 X130.246 Y103.495 E9.62207
G1 X130.583 Y103.809 E9.63739
G1 X131.034 Y104.256 E9.65851
G1 X131.45 Y104.695 E9.67863
G1 X131.897 Y105.199 E9.70104
G1 X132.252 Y105.627 E9.71953
G1 X132.631 Y106.113 E9.74003
G1 X132.918 Y106.505 E9.75619
G1 X133.25 Y106.987 E9.77565
G1 X133.544 Y107.441 E9.79364
G1 X133.883 Y108.004 E9.8155
G1 X134.16 Y108.499 E9.83437
G1 X134.449 Y109.054 E9.85518
G1 X134.672 Y109.517 E9.87227
G1 X134.915 Y110.062 E9.89212
G1 X135.117 Y110.553 E9.90978
G1 X135.361 Y111.208 E9.93303
G1 X135.56 Y111.805 E9.95396
G1 X135.755 Y112.465 E9.97685
G1 X135.886 Y112.969 E9.99417
G1 X136.01 Y113.507 E10.01253
G1 X136.11 Y114 E10.02926
G1 X136.22 Y114.646 E10.05106
G1 X136.297 Y115.209 E10.06996
G1 X136.361 Y115.81 E10.09006
G1 X136.399 Y116.305 E10.10657
G1 X136.428 Y116.912 E10.12678
G1 X136.437 Y117.441 E10.14438
G1 X136.426 Y118.104 E10.16643
