;FLAVOR:Marlin
;TIME:953
;Filament used: 0.869744m
;Layer height: 0.3
;MINX:96.519
;MINY:86.5
;MINZ:0.2
;MAXX:138.481
;MAXY:148.5
;MAXZ:10.1
;Generated with Cura_SteamEngine main
M140 S60
M105
M190 S60
M104 S200
M105
M109 S200
M82 ;absolute extrusion mode
; Ender 3 Custom Start G-code
G92 E0 ; Reset Extruder
G28 ; Home all axes
G1 Z2.0 F3000 ; Move Z Axis up little to prevent scratching of Heat Bed
G1 X0.1 Y20 Z0.3 F5000.0 ; Move to start position
G1 X0.1 Y200.0 Z0.3 F1500.0 E15 ; Draw the first line
G1 X0.4 Y200.0 Z0.3 F5000.0 ; Move to side a little
G1 X0.4 Y20 Z0.3 F1500.0 E30 ; Draw the second line
G92 E0 ; Reset Extruder
G1 Z2.0 F3000 ; Move Z Axis up little to prevent scratching of Heat Bed
G1 X5 Y20 Z0.3 F5000.0 ; Move over to prevent blob squish
G92 E0
G92 E0
G1 F2700 E-5
;LAYER_COUNT:34
;LAYER:0
M107
G0 F6000 X107.058 Y90.467 Z0.2
G0 X104.44 Y95.756
;TYPE:SKIRT
G1 F2700 E0
G1 F1200 X104.746 Y94.897 E0.03033
G1 X105.188 Y93.7 E0.07277
G1 X105.55 Y92.834 E0.10399
G1 X105.985 Y92.003 E0.13518
G1 X106.488 Y91.212 E0.16636
G1 X107.058 Y90.467 E0.19756
G1 X107.688 Y89.773 E0.22874
G1 X108.376 Y89.135 E0.25994
G1 X109.115 Y88.558 E0.29113
G1 X109.901 Y88.046 E0.32233
G1 X110.727 Y87.603 E0.3535
G1 X111.589 Y87.232 E0.38472
G1 X112.479 Y86.935 E0.41592
G1 X113.39 Y86.716 E0.44708
G1 X114.318 Y86.574 E0.47831
G1 X115.167 Y86.515 E0.50662
G1 X115.83 Y86.5 E0.52867
G1 X118.95 Y86.501 E0.63244
G1 X119.65 Y86.511 E0.65573
G1 X120.586 Y86.564 E0.68691
G1 X121.515 Y86.697 E0.71812
G1 X122.429 Y86.909 E0.74933
G1 X123.321 Y87.198 E0.78052
G1 X124.185 Y87.561 E0.81169
G1 X125.016 Y87.997 E0.8429
G1 X125.806 Y88.502 E0.87408
G1 X126.551 Y89.073 E0.9053
G1 X127.244 Y89.704 E0.93648
G1 X127.88 Y90.393 E0.96766
G1 X128.456 Y91.133 E0.99885
G1 X128.967 Y91.92 E1.03006
G1 X129.408 Y92.747 E1.06124
G1 X129.865 Y93.845 E1.10079
G1 X130.008 Y94.25 E1.11508
G1 X130.882 Y96.612 E1.19884
G1 X131.834 Y98.978 E1.28367
G1 X132.839 Y101.286 E1.36739
G1 X133.907 Y103.56 E1.45095
G1 X135.043 Y105.809 E1.53476
G1 X135.528 Y106.71 E1.56879
G1 X135.586 Y106.83 E1.57322
G1 X136.204 Y107.982 E1.6167
G1 X136.623 Y108.853 E1.64885
G1 X136.834 Y109.346 E1.66669
G1 X137.144 Y110.116 E1.6943
G1 X137.451 Y110.993 E1.7252
G1 X137.708 Y111.858 E1.75521
G1 X137.867 Y112.447 E1.7755
G1 X138.065 Y113.322 E1.80534
G1 X138.212 Y114.146 E1.83318
G1 X138.298 Y114.705 E1.85199
G1 X138.399 Y115.61 E1.88228
G1 X138.458 Y116.508 E1.91221
G1 X138.481 Y117.062 E1.93065
G1 X138.48 Y117.98 E1.96119
G1 X138.441 Y118.818 E1.98909
G1 X138.4 Y119.397 E2.0084
G1 X138.298 Y120.3 E2.03862
G1 X138.159 Y121.164 E2.06773
G1 X138.043 Y121.785 E2.08874
G1 X137.832 Y122.696 E2.11984
G1 X137.624 Y123.439 E2.1455
G1 X137.462 Y123.975 E2.16413
G1 X137.153 Y124.859 E2.19527
G1 X136.809 Y125.71 E2.2258
G1 X136.579 Y126.24 E2.24502
G1 X136.179 Y127.065 E2.27551
G1 X135.62 Y128.106 E2.31481
G1 X134.614 Y130.026 E2.38691
G1 X133.506 Y132.279 E2.47041
G1 X132.475 Y134.537 E2.55297
G1 X131.48 Y136.889 E2.63791
G1 X130.567 Y139.226 E2.72136
G1 X130.259 Y140.091 E2.7519
G1 X129.813 Y141.299 E2.79473
G1 X129.451 Y142.164 E2.82592
G1 X129.017 Y142.995 E2.8571
G1 X128.513 Y143.786 E2.8883
G1 X127.944 Y144.532 E2.9195
G1 X127.313 Y145.226 E2.9507
G1 X126.626 Y145.864 E2.98188
G1 X125.886 Y146.441 E3.01309
G1 X125.101 Y146.953 E3.04427
G1 X124.274 Y147.396 E3.07547
G1 X123.413 Y147.767 E3.10665
G1 X122.523 Y148.064 E3.13786
G1 X121.611 Y148.283 E3.16905
G1 X120.684 Y148.424 E3.20024
G1 X119.867 Y148.483 E3.22748
G1 X119.17 Y148.5 E3.25067
G1 X116.05 Y148.499 E3.35445
G1 X115.351 Y148.489 E3.3777
G1 X114.414 Y148.435 E3.40891
G1 X113.486 Y148.303 E3.44009
G1 X112.572 Y148.091 E3.4713
G1 X111.68 Y147.802 E3.50248
G1 X110.815 Y147.439 E3.53368
G1 X109.985 Y147.003 E3.56487
G1 X109.195 Y146.498 E3.59605
G1 X108.45 Y145.927 E3.62727
G1 X107.757 Y145.295 E3.65847
G1 X107.12 Y144.607 E3.68965
G1 X106.545 Y143.866 E3.72085
G1 X106.034 Y143.08 E3.75203
G1 X105.592 Y142.252 E3.78325
G1 X105.184 Y141.287 E3.81809
G1 X104.11 Y138.367 E3.92157
G1 X103.16 Y136.006 E4.00622
G1 X102.168 Y133.732 E4.08874
G1 X101.092 Y131.438 E4.17301
G1 X99.965 Y129.207 E4.25614
G1 X98.794 Y127.012 E4.33889
G1 X98.393 Y126.18 E4.36961
G1 X98.179 Y125.684 E4.38758
G1 X97.856 Y124.884 E4.41627
G1 X97.549 Y124.007 E4.44717
G1 X97.292 Y123.142 E4.47719
G1 X97.133 Y122.553 E4.49748
G1 X96.935 Y121.678 E4.52732
G1 X96.79 Y120.868 E4.55469
G1 X96.704 Y120.314 E4.57333
G1 X96.6 Y119.388 E4.60433
G1 X96.542 Y118.491 E4.63422
G1 X96.519 Y117.936 E4.6527
G1 X96.52 Y117.018 E4.68323
G1 X96.561 Y116.158 E4.71187
G1 X96.605 Y115.555 E4.73198
G1 X96.707 Y114.661 E4.7619
G1 X96.785 Y114.161 E4.77873
G1 X96.957 Y113.215 E4.81071
G1 X97.168 Y112.304 E4.84182
G1 X97.373 Y111.571 E4.86713
G1 X97.535 Y111.033 E4.88582
G1 X97.852 Y110.126 E4.91778
G1 X98.191 Y109.29 E4.94778
G1 X98.421 Y108.76 E4.967
G1 X98.821 Y107.935 E4.99749
G1 X99.38 Y106.894 E5.03679
G1 X100.386 Y104.974 E5.10889
G1 X101.494 Y102.721 E5.19239
G1 X102.525 Y100.463 E5.27495
G1 X103.52 Y98.111 E5.35989
G1 X104.44 Y95.756 E5.44398
G1 F2700 E0.44398
G0 F6000 X102.912 Y100.577
G1 F2700 E5.44398
G1 F1200 X103.885 Y98.276 E5.52708
G1 X104.802 Y95.927 E5.61095
G1 X105.121 Y95.035 E5.64246
G1 X105.563 Y93.838 E5.6849
G1 X105.919 Y92.989 E5.71552
G1 X106.348 Y92.174 E5.74615
G1 X106.845 Y91.4 E5.77674
G1 X107.408 Y90.671 E5.80738
G1 X108.032 Y89.994 E5.838
G1 X108.713 Y89.374 E5.86863
G1 X109.444 Y88.815 E5.89924
G1 X110.221 Y88.322 E5.92985
G1 X111.039 Y87.898 E5.96049
G1 X111.89 Y87.546 E5.99112
G1 X112.768 Y87.27 E6.02173
G1 X113.667 Y87.071 E6.05236
G1 X114.579 Y86.951 E6.08295
G1 X115.179 Y86.915 E6.10294
G1 X115.83 Y86.9 E6.1246
G1 X118.793 Y86.9 E6.22315
G1 X119.644 Y86.911 E6.25146
G1 X120.564 Y86.964 E6.28211
G1 X121.475 Y87.097 E6.31273
G1 X122.371 Y87.308 E6.34334
G1 X123.245 Y87.596 E6.37395
G1 X124.091 Y87.959 E6.40457
G1 X124.903 Y88.394 E6.43521
G1 X125.673 Y88.898 E6.46582
G1 X126.397 Y89.467 E6.49644
G1 X127.069 Y90.096 E6.52706
G1 X127.684 Y90.782 E6.5577
G1 X128.237 Y91.518 E6.58832
G1 X128.724 Y92.299 E6.61893
G1 X129.141 Y93.12 E6.64956
G1 X129.487 Y93.978 E6.68033
G1 X130.511 Y96.764 E6.77905
G1 X131.467 Y99.139 E6.86421
G1 X132.468 Y101.437 E6.94757
G1 X133.546 Y103.731 E7.03188
G1 X134.692 Y106.001 E7.11645
G1 X135.176 Y106.9 E7.15041
G1 X135.238 Y107.028 E7.15514
G1 X135.851 Y108.171 E7.19828
G1 X136.255 Y109.01 E7.22925
G1 X136.466 Y109.503 E7.24709
G1 X136.772 Y110.264 E7.27437
G1 X137.068 Y111.109 E7.30415
G1 X137.322 Y111.962 E7.33375
G1 X137.481 Y112.551 E7.35404
G1 X137.672 Y113.394 E7.38279
G1 X137.817 Y114.207 E7.41026
G1 X137.903 Y114.766 E7.42907
G1 X138 Y115.638 E7.45825
G1 X138.058 Y116.524 E7.48778
G1 X138.081 Y117.078 E7.50623
G1 X138.081 Y117.963 E7.53566
G1 X138.042 Y118.79 E7.5632
G1 X138.001 Y119.369 E7.5825
G1 X137.903 Y120.239 E7.61162
G1 X137.766 Y121.09 E7.64029
G1 X137.65 Y121.711 E7.6613
G1 X137.447 Y122.589 E7.69128
G1 X137.241 Y123.324 E7.71666
G1 X137.079 Y123.86 E7.73529
G1 X136.781 Y124.711 E7.76528
G1 X136.442 Y125.551 E7.79541
G1 X136.212 Y126.081 E7.81462
G1 X135.827 Y126.876 E7.844
G1 X135.234 Y127.981 E7.88571
G1 X134.259 Y129.842 E7.95559
G1 X133.162 Y132.072 E8.03825
G1 X132.088 Y134.423 E8.12422
G1 X131.115 Y136.724 E8.20731
G1 X130.193 Y139.083 E8.29155
G1 X129.884 Y139.952 E8.32222
G1 X129.438 Y141.16 E8.36505
G1 X129.082 Y142.009 E8.39567
G1 X128.653 Y142.824 E8.42631
G1 X128.156 Y143.599 E8.45693
G1 X127.593 Y144.327 E8.48754
G1 X126.969 Y145.004 E8.51816
G1 X126.289 Y145.625 E8.54879
G1 X125.557 Y146.184 E8.57942
G1 X124.78 Y146.677 E8.61003
G1 X123.963 Y147.101 E8.64064
G1 X123.112 Y147.453 E8.67127
G1 X122.234 Y147.729 E8.70189
G1 X121.335 Y147.928 E8.73251
G1 X120.422 Y148.048 E8.76314
G1 X119.854 Y148.083 E8.78207
G1 X119.17 Y148.1 E8.80482
G1 X116.055 Y148.099 E8.90843
G1 X115.356 Y148.089 E8.93168
G1 X114.437 Y148.036 E8.9623
G1 X113.526 Y147.903 E8.99292
G1 X112.63 Y147.692 E9.02353
G1 X111.756 Y147.404 E9.05414
G1 X110.91 Y147.041 E9.08476
G1 X110.098 Y146.606 E9.1154
G1 X109.328 Y146.102 E9.14601
G1 X108.604 Y145.533 E9.17663
G1 X107.932 Y144.904 E9.20725
G1 X107.317 Y144.218 E9.23789
G1 X106.764 Y143.482 E9.26851
G1 X106.277 Y142.701 E9.29912
G1 X105.86 Y141.88 E9.32975
G1 X105.56 Y141.149 E9.35603
G1 X104.488 Y138.234 E9.45933
G1 X103.539 Y135.875 E9.5439
G1 X102.532 Y133.565 E9.62772
G1 X101.446 Y131.253 E9.71268
G1 X100.317 Y129.016 E9.79602
G1 X99.825 Y128.103 E9.83051
G1 X99.759 Y127.967 E9.83554
G1 X99.147 Y126.823 E9.87869
G1 X98.76 Y126.021 E9.90831
G1 X98.546 Y125.525 E9.92628
G1 X98.228 Y124.736 E9.95457
G1 X97.932 Y123.891 E9.98435
G1 X97.678 Y123.038 E10.01395
G1 X97.519 Y122.449 E10.03424
G1 X97.328 Y121.606 E10.06299
G1 X97.185 Y120.807 E10.08999
G1 X97.099 Y120.253 E10.10864
G1 X96.999 Y119.361 E10.13849
G1 X96.958 Y118.77 E10.15819
G1 X96.919 Y117.92 E10.1865
G1 X96.919 Y117.035 E10.21593
G1 X96.941 Y116.513 E10.23331
G1 X97.004 Y115.585 E10.26424
G1 X97.103 Y114.722 E10.29314
G1 X97.234 Y113.91 E10.32049
G1 X97.35 Y113.289 E10.3415
G1 X97.553 Y112.411 E10.37148
G1 X97.756 Y111.687 E10.39649
G1 X97.918 Y111.149 E10.41517
G1 X98.224 Y110.275 E10.44597
G1 X98.558 Y109.449 E10.47561
G1 X98.788 Y108.919 E10.49482
G1 X99.173 Y108.124 E10.5242
G1 X99.766 Y107.019 E10.56591
G1 X100.741 Y105.158 E10.63579
G1 X101.838 Y102.928 E10.71845
G1 X102.912 Y100.577 E10.80442
G1 F2700 E5.80442
G0 F6000 X97.498 Y114.784
G1 F2700 E10.80442
G1 F1200 X97.627 Y113.983 E10.8314
G1 X97.743 Y113.362 E10.85241
G1 X97.939 Y112.517 E10.88126
G1 X98.139 Y111.802 E10.90596
G1 X98.301 Y111.264 E10.92465
G1 X98.595 Y110.423 E10.95428
G1 X98.925 Y109.608 E10.98352
G1 X99.155 Y109.078 E11.00274
G1 X99.526 Y108.314 E11.03099
G1 X100.105 Y107.237 E11.07166
G1 X100.15 Y107.139 E11.07524
G1 X101.096 Y105.342 E11.14279
G1 X102.21 Y103.078 E11.22671
G1 X103.267 Y100.763 E11.31135
G1 X104.267 Y98.398 E11.39676
G1 X105.172 Y96.081 E11.47949
G1 X105.496 Y95.174 E11.51152
G1 X105.938 Y93.977 E11.55396
G1 X106.289 Y93.144 E11.58403
G1 X106.711 Y92.346 E11.61405
G1 X107.202 Y91.588 E11.64409
G1 X107.758 Y90.877 E11.67411
G1 X108.376 Y90.217 E11.70418
G1 X109.049 Y89.615 E11.73422
G1 X109.772 Y89.075 E11.76423
G1 X110.541 Y88.601 E11.79428
G1 X111.348 Y88.196 E11.82431
G1 X112.188 Y87.865 E11.85434
G1 X113.055 Y87.609 E11.8844
G1 X113.94 Y87.431 E11.91443
G1 X115.191 Y87.315 E11.95622
G1 X115.83 Y87.3 E11.97747
G1 X118.793 Y87.3 E12.07602
G1 X119.639 Y87.311 E12.10417
G1 X120.54 Y87.364 E12.13418
G1 X121.434 Y87.496 E12.16424
G1 X122.312 Y87.707 E12.19427
G1 X123.168 Y87.995 E12.22431
G1 X123.995 Y88.357 E12.25434
G1 X124.787 Y88.791 E12.28438
G1 X125.537 Y89.294 E12.31441
G1 X126.24 Y89.861 E12.34445
G1 X126.891 Y90.487 E12.37449
G1 X127.483 Y91.169 E12.40453
G1 X128.012 Y91.901 E12.43457
G1 X128.475 Y92.676 E12.46459
G1 X128.867 Y93.49 E12.49464
G1 X129.11 Y94.112 E12.51685
G1 X130.153 Y96.946 E12.61729
G1 X131.08 Y99.251 E12.69993
G1 X132.111 Y101.617 E12.78577
G1 X133.184 Y103.902 E12.86973
G1 X134.332 Y106.176 E12.95445
G1 X134.824 Y107.089 E12.98895
G1 X134.883 Y107.211 E12.99346
G1 X135.499 Y108.36 E13.03682
G1 X135.887 Y109.168 E13.06663
G1 X136.198 Y109.902 E13.09314
G1 X136.401 Y110.412 E13.1114
G1 X136.685 Y111.225 E13.14004
G1 X136.936 Y112.067 E13.16927
G1 X137.095 Y112.656 E13.18956
G1 X137.278 Y113.467 E13.21721
G1 X137.421 Y114.268 E13.24427
G1 X137.507 Y114.827 E13.26308
G1 X137.601 Y115.666 E13.29116
G1 X137.642 Y116.252 E13.3107
G1 X137.681 Y117.095 E13.33877
G1 X137.681 Y117.947 E13.36711
G1 X137.643 Y118.761 E13.39421
G1 X137.602 Y119.34 E13.41352
G1 X137.507 Y120.178 E13.44157
G1 X137.373 Y121.017 E13.46983
G1 X137.257 Y121.638 E13.49084
G1 X137.061 Y122.483 E13.51969
G1 X136.858 Y123.208 E13.54473
G1 X136.696 Y123.744 E13.56335
G1 X136.41 Y124.563 E13.59221
G1 X136.075 Y125.392 E13.62194
G1 X135.845 Y125.922 E13.64116
G1 X135.474 Y126.686 E13.66941
G1 X134.895 Y127.763 E13.71008
G1 X134.85 Y127.861 E13.71367
G1 X133.904 Y129.658 E13.78121
G1 X132.79 Y131.922 E13.86513
G1 X131.733 Y134.237 E13.94978
G1 X130.733 Y136.602 E14.03518
G1 X129.823 Y138.93 E14.11831
G1 X129.509 Y139.814 E14.14952
G1 X129.063 Y141.022 E14.19235
G1 X128.713 Y141.854 E14.22237
G1 X128.29 Y142.653 E14.25244
G1 X127.799 Y143.41 E14.28245
G1 X127.243 Y144.122 E14.31249
G1 X126.626 Y144.781 E14.34252
G1 X125.953 Y145.384 E14.37257
G1 X125.229 Y145.924 E14.40261
G1 X124.461 Y146.398 E14.43263
G1 X123.653 Y146.803 E14.46269
G1 X122.813 Y147.134 E14.49272
G1 X121.947 Y147.39 E14.52276
G1 X121.062 Y147.568 E14.55278
G1 X119.84 Y147.683 E14.5936
G1 X119.17 Y147.7 E14.6159
G1 X116.061 Y147.699 E14.7193
G1 X115.362 Y147.689 E14.74255
G1 X114.461 Y147.636 E14.77257
G1 X113.567 Y147.504 E14.80263
G1 X112.689 Y147.293 E14.83266
G1 X111.833 Y147.005 E14.8627
G1 X111.006 Y146.643 E14.89273
G1 X110.214 Y146.209 E14.92277
G1 X109.463 Y145.706 E14.95283
G1 X108.76 Y145.139 E14.98287
G1 X108.11 Y144.512 E15.01291
G1 X107.518 Y143.83 E15.04294
G1 X106.989 Y143.099 E15.07296
G1 X106.526 Y142.323 E15.10301
G1 X106.134 Y141.51 E15.13303
G1 X105.935 Y141.011 E15.1509
G1 X104.848 Y138.055 E15.25565
G1 X103.918 Y135.745 E15.33847
G1 X102.896 Y133.402 E15.42349
G1 X101.808 Y131.082 E15.50872
G1 X100.668 Y128.824 E15.59285
G1 X100.177 Y127.913 E15.62727
G1 X100.114 Y127.783 E15.63208
G1 X99.5 Y126.635 E15.67538
G1 X99.128 Y125.863 E15.70388
G1 X98.802 Y125.098 E15.73154
G1 X98.599 Y124.588 E15.7498
G1 X98.315 Y123.775 E15.77844
G1 X98.064 Y122.933 E15.80766
G1 X97.905 Y122.344 E15.82795
G1 X97.722 Y121.533 E15.8556
G1 X97.581 Y120.746 E15.8822
G1 X97.495 Y120.192 E15.90084
G1 X97.398 Y119.333 E15.9296
G1 X97.357 Y118.742 E15.9493
G1 X97.319 Y117.903 E15.97723
G1 X97.319 Y117.051 E16.00557
G1 X97.359 Y116.217 E16.03334
G1 X97.403 Y115.614 E16.05345
G1 X97.498 Y114.784 E16.08124
G1 F2700 E11.08124
;MESH:prensa final v5.stl
G0 F6000 X110.851 Y125.838
G0 X111.816 Y126.524
G0 X112.862 Y127.105
G0 X113.764 Y127.478
G0 X114.844 Y127.808
G0 X116.1 Y136.9
;TYPE:WALL-INNER
G1 F2700 E16.08124
G1 F1200 X118.9 Y136.9 E16.17437
G1 X118.9 Y127.312 E16.49326
G1 X118.933 Y127.114 E16.49994
G1 X119.007 Y126.968 E16.50538
G1 X119.272 Y126.756 E16.51667
G1 X120.591 Y126.374 E16.56235
G1 X121.578 Y125.968 E16.59784
G1 X122.502 Y125.457 E16.63296
G1 X123.362 Y124.846 E16.66805
G1 X124.148 Y124.146 E16.70306
G1 X124.848 Y123.36 E16.73806
G1 X125.453 Y122.508 E16.77282
G1 X125.963 Y121.588 E16.8078
G1 X126.374 Y120.591 E16.84367
G1 X126.661 Y119.59 E16.87831
G1 X126.839 Y118.55 E16.9134
G1 X126.868 Y118.029 E16.93076
G1 X126.898 Y117.508 E16.94811
G1 X126.839 Y116.448 E16.98342
G1 X126.662 Y115.408 E17.01851
G1 X126.374 Y114.409 E17.05309
G1 X125.968 Y113.422 E17.08859
G1 X125.457 Y112.498 E17.12371
G1 X124.846 Y111.638 E17.15879
G1 X124.146 Y110.852 E17.1938
G1 X123.36 Y110.152 E17.22881
G1 X122.51 Y109.549 E17.26347
G1 X121.588 Y109.037 E17.29855
G1 X120.591 Y108.626 E17.33441
G1 X119.265 Y108.245 E17.3803
G1 X119.085 Y108.122 E17.38755
G1 X118.933 Y107.886 E17.39689
G1 X118.902 Y107.741 E17.40182
G1 X118.9 Y98.1 E17.72248
G1 X116.1 Y98.1 E17.81561
G1 X116.098 Y107.741 E18.13627
G1 X115.993 Y108.031 E18.14653
G1 X115.728 Y108.244 E18.15784
G1 X114.409 Y108.626 E18.20351
G1 X113.422 Y109.032 E18.23901
G1 X112.498 Y109.543 E18.27413
G1 X111.638 Y110.154 E18.30921
G1 X110.852 Y110.854 E18.34422
G1 X110.151 Y111.64 E18.37925
G1 X109.547 Y112.492 E18.41399
G1 X109.037 Y113.412 E18.44897
G1 X108.626 Y114.409 E18.48484
G1 X108.338 Y115.41 E18.51948
G1 X108.161 Y116.45 E18.55457
G1 X108.101 Y117.492 E18.58929
G1 X108.161 Y118.55 E18.62453
G1 X108.338 Y119.59 E18.65962
G1 X108.626 Y120.591 E18.69426
G1 X109.032 Y121.578 E18.72976
G1 X109.541 Y122.5 E18.76479
G1 X110.152 Y123.36 E18.79988
G1 X110.852 Y124.146 E18.83488
G1 X111.638 Y124.846 E18.86989
G1 X112.49 Y125.451 E18.90465
G1 X113.412 Y125.963 E18.93972
G1 X114.409 Y126.374 E18.97559
G1 X115.728 Y126.756 E19.02126
G1 X115.993 Y126.968 E19.03255
G1 X116.067 Y127.114 E19.038
G1 X116.1 Y127.312 E19.04467
G1 X116.1 Y136.9 E19.36357
