;FLAVOR:Marlin
;TIME:897
;Filament used: 0.953105m
;Layer height: 0.3
;MINX:98
;MINY:91.5
;MINZ:0.2
;MAXX:137
;MAXY:143.5
;MAXZ:5
;Generated with Cura_SteamEngine main
M140 S60
M105
M190 S60
M104 S200
M105
M109 S200
M82 ;absolute extrusion mode
; Ender 3 Custom Start G-code
G92 E0 ; Reset Extruder
G28 ; Home all axes
G1 Z2.0 F3000 ; Move Z Axis up little to prevent scratching of Heat Bed
G1 X0.1 Y20 Z0.3 F5000.0 ; Move to start position
G1 X0.1 Y200.0 Z0.3 F1500.0 E15 ; Draw the first line
G1 X0.4 Y200.0 Z0.3 F5000.0 ; Move to side a little
G1 X0.4 Y20 Z0.3 F1500.0 E30 ; Draw the second line
G92 E0 ; Reset Extruder
G1 Z2.0 F3000 ; Move Z Axis up little to prevent scratching of Heat Bed
G1 X5 Y20 Z0.3 F5000.0 ; Move over to prevent blob squish
G92 E0
G92 E0
G1 F2700 E-5
;LAYER_COUNT:17
;LAYER:0
M107
G0 F6000 X101.198 Y94.764 Z0.2
G0 X98.001 Y103.025
;TYPE:SKIRT
G1 F2700 E0
G1 F1200 X98.01 Y102.36 E0.02212
G1 X98.063 Y101.424 E0.0533
G1 X98.195 Y100.495 E0.08451
G1 X98.406 Y99.581 E0.11571
G1 X98.694 Y98.689 E0.14689
G1 X99.057 Y97.824 E0.17809
G1 X99.492 Y96.993 E0.20928
G1 X99.996 Y96.203 E0.24045
G1 X100.566 Y95.458 E0.27165
G1 X101.198 Y94.764 E0.30287
G1 X101.886 Y94.127 E0.33405
G1 X102.626 Y93.551 E0.36524
G1 X103.412 Y93.039 E0.39644
G1 X104.239 Y92.597 E0.42763
G1 X105.101 Y92.227 E0.45883
G1 X105.991 Y91.931 E0.49003
G1 X106.903 Y91.713 E0.52122
G1 X107.83 Y91.572 E0.5524
G1 X108.701 Y91.513 E0.58144
G1 X109.33 Y91.5 E0.60236
G1 X125.451 Y91.501 E1.13855
G1 X126.149 Y91.511 E1.16177
G1 X127.085 Y91.565 E1.19295
G1 X128.013 Y91.697 E1.22413
G1 X128.927 Y91.909 E1.25533
G1 X129.819 Y92.198 E1.28652
G1 X130.684 Y92.561 E1.31772
G1 X131.514 Y92.997 E1.3489
G1 X132.305 Y93.502 E1.38012
G1 X133.049 Y94.073 E1.41131
G1 X133.742 Y94.705 E1.44251
G1 X134.379 Y95.393 E1.47369
G1 X134.954 Y96.134 E1.50489
G1 X135.465 Y96.92 E1.53607
G1 X135.907 Y97.748 E1.56729
G1 X136.276 Y98.61 E1.59847
G1 X136.571 Y99.5 E1.62966
G1 X136.789 Y100.412 E1.66085
G1 X136.929 Y101.34 E1.69206
G1 X136.987 Y102.201 E1.72076
G1 X137 Y102.83 E1.74169
G1 X136.999 Y131.9 E2.70856
G1 X136.99 Y132.627 E2.73274
G1 X136.939 Y133.564 E2.76395
G1 X136.807 Y134.492 E2.79513
G1 X136.598 Y135.406 E2.82631
G1 X136.311 Y136.299 E2.85751
G1 X135.949 Y137.165 E2.88873
G1 X135.515 Y137.996 E2.91991
G1 X135.011 Y138.787 E2.95111
G1 X134.442 Y139.532 E2.98228
G1 X133.811 Y140.227 E3.01351
G1 X133.124 Y140.865 E3.04469
G1 X132.385 Y141.442 E3.07587
G1 X131.599 Y141.954 E3.10707
G1 X130.773 Y142.397 E3.13825
G1 X129.911 Y142.769 E3.16947
G1 X129.022 Y143.065 E3.20064
G1 X128.11 Y143.285 E3.23184
G1 X127.183 Y143.426 E3.26303
G1 X126.299 Y143.487 E3.2925
G1 X125.67 Y143.5 E3.31343
G1 X109.565 Y143.499 E3.84908
G1 X108.867 Y143.49 E3.8723
G1 X107.931 Y143.438 E3.90348
G1 X107.002 Y143.306 E3.93469
G1 X106.088 Y143.096 E3.96588
G1 X105.195 Y142.809 E3.99708
G1 X104.33 Y142.446 E4.02828
G1 X103.499 Y142.012 E4.05946
G1 X102.708 Y141.508 E4.09065
G1 X101.963 Y140.938 E4.12185
G1 X101.269 Y140.307 E4.15305
G1 X100.632 Y139.62 E4.18421
G1 X100.055 Y138.88 E4.21542
G1 X99.543 Y138.094 E4.24662
G1 X99.1 Y137.267 E4.27782
G1 X98.729 Y136.406 E4.30901
G1 X98.433 Y135.516 E4.3402
G1 X98.214 Y134.604 E4.3714
G1 X98.073 Y133.677 E4.40258
G1 X98.013 Y132.788 E4.43222
G1 X98 Y132.158 E4.45318
G1 X98.001 Y103.025 E5.42215
G0 F6000 X98.401 Y103.031
G1 F1200 X98.41 Y102.366 E5.44427
G1 X98.462 Y101.446 E5.47491
G1 X98.594 Y100.535 E5.50553
G1 X98.805 Y99.639 E5.53615
G1 X99.092 Y98.764 E5.56677
G1 X99.455 Y97.918 E5.59739
G1 X99.889 Y97.106 E5.62802
G1 X100.392 Y96.335 E5.65863
G1 X100.961 Y95.611 E5.68926
G1 X101.589 Y94.939 E5.71985
G1 X102.274 Y94.323 E5.75049
G1 X103.01 Y93.77 E5.78111
G1 X103.791 Y93.282 E5.81174
G1 X104.611 Y92.864 E5.84236
G1 X105.465 Y92.519 E5.87299
G1 X106.345 Y92.249 E5.90361
G1 X107.245 Y92.057 E5.93421
G1 X108.159 Y91.943 E5.96485
G1 X108.712 Y91.913 E5.98327
G1 X109.33 Y91.9 E6.00383
G1 X125.293 Y91.9 E6.53476
G1 X126.143 Y91.911 E6.56303
G1 X127.062 Y91.964 E6.59365
G1 X127.973 Y92.097 E6.62427
G1 X128.869 Y92.308 E6.65489
G1 X129.743 Y92.596 E6.68549
G1 X130.59 Y92.959 E6.71614
G1 X131.401 Y93.394 E6.74675
G1 X132.171 Y93.898 E6.77736
G1 X132.895 Y94.467 E6.80799
G1 X133.567 Y95.097 E6.83863
G1 X134.182 Y95.782 E6.86924
G1 X134.735 Y96.518 E6.89986
G1 X135.222 Y97.299 E6.93048
G1 X135.639 Y98.12 E6.9611
G1 X135.984 Y98.974 E6.99174
G1 X136.253 Y99.854 E7.02234
G1 X136.445 Y100.755 E7.05298
G1 X136.558 Y101.668 E7.08358
G1 X136.587 Y102.212 E7.1017
G1 X136.6 Y102.83 E7.12226
G1 X136.599 Y131.895 E8.08897
G1 X136.59 Y132.622 E8.11315
G1 X136.539 Y133.541 E8.14376
G1 X136.408 Y134.453 E8.17441
G1 X136.198 Y135.349 E8.20501
G1 X135.912 Y136.224 E8.23563
G1 X135.551 Y137.071 E8.26625
G1 X135.117 Y137.883 E8.29688
G1 X134.615 Y138.655 E8.32751
G1 X134.047 Y139.38 E8.35814
G1 X133.419 Y140.053 E8.38875
G1 X132.735 Y140.669 E8.41937
G1 X132 Y141.223 E8.44998
G1 X131.22 Y141.712 E8.4806
G1 X130.4 Y142.131 E8.51123
G1 X129.547 Y142.477 E8.54185
G1 X128.667 Y142.748 E8.57247
G1 X127.767 Y142.941 E8.60309
G1 X126.853 Y143.056 E8.63373
G1 X126.288 Y143.087 E8.65255
G1 X125.67 Y143.1 E8.67311
G1 X109.57 Y143.099 E9.20859
G1 X108.872 Y143.09 E9.23181
G1 X107.953 Y143.038 E9.26243
G1 X107.042 Y142.907 E9.29304
G1 X106.146 Y142.697 E9.32365
G1 X105.271 Y142.41 E9.35427
G1 X104.424 Y142.048 E9.38491
G1 X103.612 Y141.614 E9.41553
G1 X102.841 Y141.112 E9.44613
G1 X102.116 Y140.544 E9.47677
G1 X101.443 Y139.915 E9.5074
G1 X100.828 Y139.231 E9.538
G1 X100.274 Y138.496 E9.56861
G1 X99.786 Y137.715 E9.59924
G1 X99.367 Y136.895 E9.62987
G1 X99.021 Y136.042 E9.66048
G1 X98.751 Y135.162 E9.6911
G1 X98.558 Y134.261 E9.72175
G1 X98.444 Y133.348 E9.75235
G1 X98.413 Y132.777 E9.77137
G1 X98.4 Y132.158 E9.79196
G1 X98.401 Y103.031 E10.76073
G0 F6000 X98.801 Y103.036
G1 F1200 X98.81 Y102.371 E10.78285
G1 X98.862 Y101.469 E10.8129
G1 X98.994 Y100.576 E10.84292
G1 X99.204 Y99.698 E10.87295
G1 X99.491 Y98.841 E10.90301
G1 X99.853 Y98.014 E10.93304
G1 X100.286 Y97.222 E10.96306
G1 X100.788 Y96.471 E10.9931
G1 X101.355 Y95.767 E11.02317
G1 X101.981 Y95.117 E11.05318
G1 X102.662 Y94.524 E11.08322
G1 X103.394 Y93.994 E11.11327
G1 X104.169 Y93.531 E11.1433
G1 X104.982 Y93.138 E11.17334
G1 X105.827 Y92.818 E11.20339
G1 X106.696 Y92.575 E11.2334
G1 X107.584 Y92.409 E11.26345
G1 X108.723 Y92.313 E11.30146
G1 X109.33 Y92.3 E11.32166
G1 X125.293 Y92.3 E11.85259
G1 X126.137 Y92.311 E11.88066
G1 X127.039 Y92.364 E11.91072
G1 X127.932 Y92.496 E11.94074
G1 X128.81 Y92.707 E11.97077
G1 X129.666 Y92.995 E12.00081
G1 X130.493 Y93.357 E12.03084
G1 X131.285 Y93.792 E12.06089
G1 X132.036 Y94.294 E12.09094
G1 X132.739 Y94.861 E12.12098
G1 X133.389 Y95.488 E12.15101
G1 X133.981 Y96.17 E12.18105
G1 X134.511 Y96.901 E12.21108
G1 X134.973 Y97.677 E12.24112
G1 X135.366 Y98.49 E12.27115
G1 X135.684 Y99.335 E12.30118
G1 X135.927 Y100.205 E12.33123
G1 X136.092 Y101.093 E12.36127
G1 X136.187 Y102.223 E12.39898
G1 X136.2 Y102.83 E12.41918
G1 X136.199 Y131.89 E13.38572
G1 X136.19 Y132.617 E13.4099
G1 X136.139 Y133.519 E13.43995
G1 X136.008 Y134.413 E13.47
G1 X135.799 Y135.291 E13.50002
G1 X135.513 Y136.148 E13.53007
G1 X135.152 Y136.976 E13.56011
G1 X134.72 Y137.768 E13.59012
G1 X134.219 Y138.52 E13.62017
G1 X133.653 Y139.224 E13.65021
G1 X133.028 Y139.875 E13.68023
G1 X132.347 Y140.469 E13.71029
G1 X131.616 Y141 E13.74034
G1 X130.842 Y141.464 E13.77035
G1 X130.029 Y141.858 E13.8004
G1 X129.185 Y142.178 E13.83042
G1 X128.315 Y142.423 E13.86048
G1 X127.428 Y142.589 E13.8905
G1 X126.277 Y142.687 E13.92892
G1 X125.67 Y142.7 E13.94911
G1 X109.575 Y142.699 E14.48443
G1 X108.877 Y142.69 E14.50765
G1 X107.976 Y142.639 E14.53767
G1 X107.082 Y142.507 E14.56772
G1 X106.204 Y142.298 E14.59774
G1 X105.347 Y142.011 E14.6278
G1 X104.52 Y141.65 E14.65781
G1 X103.727 Y141.217 E14.68787
G1 X102.976 Y140.716 E14.71789
G1 X102.272 Y140.15 E14.74794
G1 X101.621 Y139.524 E14.77797
G1 X101.028 Y138.843 E14.80801
G1 X100.498 Y138.112 E14.83804
G1 X100.034 Y137.337 E14.86808
G1 X99.64 Y136.524 E14.89813
G1 X99.32 Y135.68 E14.92815
G1 X99.076 Y134.81 E14.95821
G1 X98.91 Y133.922 E14.98825
G1 X98.813 Y132.767 E15.0268
G1 X98.8 Y132.158 E15.04706
G1 X98.801 Y103.036 E16.01567
G1 F2700 E11.01567
;MESH:Cuerpo8.stl
G0 F6000 X115.343 Y112.749
G0 X117.692 Y114.36
;TYPE:WALL-INNER
G1 F2700 E16.01567
G1 F1200 X117.212 Y114.343 E16.03164
G1 X116.794 Y114.23 E16.04604
G1 X116.277 Y113.961 E16.06543
G1 X115.805 Y113.478 E16.08789
G1 X115.59 Y113.001 E16.10529
G1 X115.502 Y112.634 E16.11784
G1 X115.498 Y112.203 E16.13218
G1 X115.56 Y111.807 E16.14551
G1 X115.79 Y111.251 E16.16552
G1 X116.235 Y110.769 E16.18734
G1 X116.588 Y110.564 E16.20092
G1 X117.028 Y110.404 E16.21649
G1 X117.416 Y110.36 E16.22948
G1 X117.863 Y110.413 E16.24445
G1 X118.337 Y110.59 E16.26128
G1 X118.751 Y110.872 E16.27794
G1 X119.084 Y111.249 E16.29467
G1 X119.362 Y111.775 E16.31446
G1 X119.441 Y112.496 E16.33858
G1 X119.315 Y113.015 E16.35634
G1 X119.138 Y113.399 E16.37041
G1 X118.892 Y113.746 E16.38455
G1 X118.537 Y114.056 E16.40023
G1 X118.194 Y114.228 E16.41299
G1 X118.058 Y114.277 E16.4178
G1 X117.692 Y114.36 E16.43028
G0 F6000 X117.64 Y113.959
;TYPE:WALL-OUTER
G1 F1200 X117.279 Y113.949 E16.44229
G1 X116.956 Y113.859 E16.45345
G1 X116.515 Y113.634 E16.46991
G1 X116.143 Y113.247 E16.48777
G1 X115.966 Y112.853 E16.50213
G1 X115.903 Y112.596 E16.51093
G1 X115.901 Y112.165 E16.52527
G1 X115.945 Y111.934 E16.53309
G1 X116.135 Y111.471 E16.54974
G1 X116.494 Y111.077 E16.56746
G1 X116.724 Y110.94 E16.57637
G1 X117.136 Y110.794 E16.59091
G1 X117.418 Y110.757 E16.60037
G1 X117.791 Y110.812 E16.61291
G1 X118.127 Y110.938 E16.62484
G1 X118.466 Y111.162 E16.63836
G1 X118.752 Y111.477 E16.65251
G1 X118.969 Y111.895 E16.66817
G1 X119.04 Y112.459 E16.68708
G1 X118.94 Y112.866 E16.70102
G1 X118.781 Y113.212 E16.71368
G1 X118.609 Y113.455 E16.72358
G1 X118.326 Y113.71 E16.73625
G1 X117.969 Y113.887 E16.74951
G1 X117.64 Y113.959 E16.76071
G1 F2700 E11.76071
G0 F6000 X117.519 Y114.458
G0 X117.519 Y120.185
G0 X117.687 Y124.361
;TYPE:WALL-INNER
G1 F2700 E16.76071
G1 F1200 X117.223 Y124.349 E16.77615
G1 X116.791 Y124.228 E16.79107
G1 X116.27 Y123.954 E16.81065
G1 X115.874 Y123.55 E16.82946
G1 X115.636 Y123.128 E16.84558
G1 X115.502 Y122.638 E16.86247
G1 X115.498 Y122.203 E16.87694
G1 X115.56 Y121.807 E16.89027
G1 X115.79 Y121.251 E16.91029
G1 X116.233 Y120.771 E16.93201
G1 X116.549 Y120.58 E16.94429
G1 X117.026 Y120.405 E16.96119
G1 X117.383 Y120.36 E16.97316
G1 X117.495 Y120.364 E16.97689
G1 X117.886 Y120.423 E16.99004
G1 X118.338 Y120.592 E17.00609
G1 X118.75 Y120.872 E17.02266
G1 X119.083 Y121.249 E17.03939
G1 X119.362 Y121.775 E17.05919
G1 X119.441 Y122.496 E17.08331
G1 X119.315 Y123.015 E17.10108
G1 X119.138 Y123.399 E17.11514
G1 X118.892 Y123.747 E17.12932
G1 X118.529 Y124.06 E17.14526
G1 X118.128 Y124.261 E17.16018
G1 X117.687 Y124.361 E17.17522
G0 F6000 X117.66 Y123.957
;TYPE:WALL-OUTER
G1 F1200 X117.283 Y123.951 E17.18776
G1 X116.962 Y123.861 E17.19885
G1 X116.527 Y123.639 E17.21509
G1 X116.197 Y123.308 E17.23063
G1 X116.02 Y122.995 E17.24259
G1 X115.903 Y122.596 E17.25642
G1 X115.901 Y122.165 E17.27076
G1 X115.945 Y121.934 E17.27858
G1 X116.135 Y121.471 E17.29523
G1 X116.504 Y121.073 E17.31328
G1 X116.724 Y120.94 E17.32183
G1 X117.108 Y120.801 E17.33541
G1 X117.405 Y120.76 E17.34538
G1 X117.76 Y120.803 E17.35728
G1 X118.153 Y120.95 E17.37123
G1 X118.467 Y121.163 E17.38385
G1 X118.752 Y121.477 E17.39796
G1 X118.969 Y121.895 E17.41362
G1 X119.04 Y122.459 E17.43253
G1 X118.94 Y122.866 E17.44647
G1 X118.781 Y123.212 E17.45913
G1 X118.609 Y123.455 E17.46903
G1 X118.32 Y123.714 E17.48194
G1 X117.969 Y123.887 E17.49496
G1 X117.66 Y123.957 E17.50549
G1 F2700 E12.50549
G0 F6000 X117.773 Y124.442
G0 X116.657 Y124.361
G0 X109.8 Y127.578
G0 X109.6 Y131.9
;TYPE:WALL-INNER
G1 F2700 E17.50549
G1 F1200 X125.4 Y131.9 E18.031
G1 X125.4 Y107.355 E18.84737
G1 X125.4 Y103.1 E18.9889
G1 X109.601 Y103.101 E19.51437
G1 X109.6 Y131.9 E20.47223
G0 F6000 X109.2 Y132.3
;TYPE:WALL-OUTER
G1 F1200 X125.8 Y132.3 E21.02435
G1 X125.8 Y107.355 E21.85402
G1 X125.8 Y102.7 E22.00885
G1 X109.201 Y102.701 E22.56093
G1 X109.2 Y132.3 E23.5454
G0 F6000 X109.47 Y132.03
G0 X109.7 Y131.54
G0 X109.96 Y131.54
;TYPE:SKIN
G1 F1200 X125.04 Y131.54 E24.04696
G1 X125.04 Y107.355 E24.85136
G1 X125.04 Y103.46 E24.98091
G1 X109.961 Y103.461 E25.48244
G1 X109.96 Y131.54 E26.41635
G1 F2700 E21.41635
G0 F6000 X109.7 Y131.54
G0 X114.868 Y131.74
G0 X116.897 Y124.446
G0 X117.166 Y124.708
G1 F2700 E26.41635
G1 F1200 X116.626 Y124.551 E26.43505
G1 X116.061 Y124.249 E26.45636
G1 X115.583 Y123.766 E26.47896
G1 X115.296 Y123.261 E26.49828
G1 X115.144 Y122.69 E26.51794
G1 X115.14 Y122.181 E26.53487
G1 X115.216 Y121.696 E26.55119
G1 X115.476 Y121.06 E26.57405
G1 X116.004 Y120.491 E26.59986
G1 X116.398 Y120.247 E26.61528
G1 X116.97 Y120.048 E26.63542
G1 X117.38 Y119.995 E26.64917
G1 X117.926 Y120.055 E26.66744
G1 X118.505 Y120.269 E26.68797
G1 X118.992 Y120.601 E26.70758
G1 X119.396 Y121.064 E26.72801
G1 X119.71 Y121.662 E26.75048
G1 X119.808 Y122.491 E26.77824
G1 X119.665 Y123.108 E26.79931
G1 X119.466 Y123.552 E26.81549
G1 X119.164 Y123.988 E26.83313
G1 X118.735 Y124.357 E26.85195
G1 X118.243 Y124.606 E26.87029
G1 X117.738 Y124.719 E26.8875
G1 X117.166 Y124.708 E26.90653
G1 F2700 E21.90653
G0 F6000 X117.037 Y124.402
G0 X116.007 Y123.454
G0 X115.787 Y123.067
G0 X115.662 Y122.62
G0 X115.719 Y121.848
G0 X115.928 Y121.339
G0 X116.262 Y120.979
G0 X117.335 Y120.182
G0 X117.492 Y114.537
G0 X117.151 Y114.704
G1 F2700 E26.90653
G1 F1200 X116.655 Y114.561 E26.9237
G1 X116.057 Y114.255 E26.94604
G1 X115.498 Y113.679 E26.97274
G1 X115.253 Y113.128 E26.9928
G1 X115.144 Y112.686 E27.00794
G1 X115.14 Y112.181 E27.02473
G1 X115.216 Y111.696 E27.04106
G1 X115.476 Y111.061 E27.06388
G1 X115.991 Y110.498 E27.08926
G1 X116.347 Y110.274 E27.10325
G1 X116.95 Y110.052 E27.12462
G1 X117.417 Y109.99 E27.14029
G1 X117.947 Y110.06 E27.15807
G1 X118.485 Y110.262 E27.17719
G1 X118.988 Y110.596 E27.19727
G1 X119.396 Y111.064 E27.21792
G1 X119.71 Y111.662 E27.24039
G1 X119.808 Y112.491 E27.26815
G1 X119.664 Y113.111 E27.28932
G1 X119.466 Y113.552 E27.3054
G1 X119.167 Y113.984 E27.32287
G1 X118.769 Y114.333 E27.34048
G1 X118.281 Y114.588 E27.35879
G1 X117.73 Y114.719 E27.37763
G1 X117.151 Y114.704 E27.39689
G1 F2700 E22.39689
G0 F6000 X117.064 Y114.41
G0 X118.075 Y114.107
G0 X118.449 Y113.92
G0 X118.775 Y113.634
G0 X119.161 Y112.965
G0 X119.258 Y112.566
G0 X119.171 Y111.075
G0 X125.2 Y111.075
G0 X124.839 Y103.909
G1 F2700 E27.39689
G1 F1200 X124.59 Y103.66 E27.40861
G0 F6000 X124.025 Y103.66
G1 F1200 X124.839 Y104.475 E27.44692
G0 F6000 X124.839 Y105.04
G1 F1200 X123.459 Y103.66 E27.51183
G0 F6000 X122.893 Y103.66
G1 F1200 X124.839 Y105.606 E27.60336
G0 F6000 X124.839 Y106.172
G1 F1200 X122.328 Y103.66 E27.72149
G0 F6000 X121.762 Y103.66
G1 F1200 X124.839 Y106.737 E27.86623
G0 F6000 X124.839 Y107.303
G1 F1200 X121.196 Y103.66 E28.03758
G0 F6000 X120.631 Y103.66
G1 F1200 X124.839 Y107.869 E28.23554
G0 F6000 X124.839 Y108.434
G1 F1200 X120.065 Y103.66 E28.46009
G0 F6000 X119.499 Y103.66
G1 F1200 X124.839 Y109 E28.71127
G0 F6000 X124.839 Y109.566
G1 F1200 X118.933 Y103.66 E28.98907
G0 F6000 X118.368 Y103.66
G1 F1200 X124.839 Y110.131 E29.29345
G0 F6000 X124.839 Y110.697
G1 F1200 X117.802 Y103.66 E29.62444
G0 F6000 X117.236 Y103.66
G1 F1200 X124.839 Y111.263 E29.98207
G0 F6000 X124.839 Y111.828
G1 F1200 X116.671 Y103.66 E30.36626
G0 F6000 X116.105 Y103.66
G1 F1200 X124.839 Y112.394 E30.77708
G0 F6000 X124.839 Y112.96
G1 F1200 X115.539 Y103.66 E31.21453
G0 F6000 X114.974 Y103.66
G1 F1200 X124.839 Y113.525 E31.67855
G0 F6000 X124.839 Y114.091
G1 F1200 X114.408 Y103.66 E32.16919
G0 F6000 X113.842 Y103.66
G1 F1200 X124.839 Y114.657 E32.68645
G0 F6000 X124.839 Y115.223
G1 F1200 X113.277 Y103.66 E33.23032
G0 F6000 X112.711 Y103.66
G1 F1200 X124.839 Y115.788 E33.80078
G0 F6000 X124.839 Y116.354
G1 F1200 X119.7 Y111.215 E34.04251
G0 F6000 X119.954 Y112.034
