;FLAVOR:Marlin
;TIME:1328
;Filament used: 0.926905m
;Layer height: 0.2
;MINX:89.515
;MINY:89.516
;MINZ:0.2
;MAXX:130.485
;MAXY:130.484
;MAXZ:15
;Generated with Cura_SteamEngine main
M140 S50
M105
M190 S50
M104 S200
M105
M109 S200
M82 ;absolute extrusion mode
M201 X500.00 Y500.00 Z100.00 E5000.00 ;Setup machine max acceleration
M203 X500.00 Y500.00 Z10.00 E50.00 ;Setup machine max feedrate
M204 P500.00 R1000.00 T500.00 ;Setup Print/Retract/Travel acceleration
M205 X8.00 Y8.00 Z0.40 E5.00 ;Setup Jerk
M220 S100 ;Reset Feedrate
M221 S100 ;Reset Flowrate

G28 ;Home

G92 E0 ;Reset Extruder
G1 Z2.0 F3000 ;Move Z Axis up
G1 X10.1 Y20 Z0.28 F5000.0 ;Move to start position
G1 X10.1 Y200.0 Z0.28 F1500.0 E15 ;Draw the first line
G1 X10.4 Y200.0 Z0.28 F5000.0 ;Move to side a little
G1 X10.4 Y20 Z0.28 F1500.0 E30 ;Draw the second line
G92 E0 ;Reset Extruder
G1 Z2.0 F3000 ;Move Z Axis up

G92 E0
G92 E0
G1 F2700 E-5
;LAYER_COUNT:75
;LAYER:0
M107
G0 F6000 X95.313 Y95.722 Z0.2
G0 X89.515 Y110.085
;TYPE:SKIRT
G1 F2700 E0
G1 F1200 X89.526 Y109.349 E0.02448
G1 X89.558 Y108.685 E0.04659
G1 X89.613 Y107.998 E0.06952
G1 X89.674 Y107.45 E0.08785
G1 X89.773 Y106.755 E0.1112
G1 X89.884 Y106.126 E0.13245
G1 X90.034 Y105.415 E0.15662
G1 X90.173 Y104.849 E0.176
G1 X90.359 Y104.184 E0.19897
G1 X90.556 Y103.555 E0.22089
G1 X90.787 Y102.893 E0.24421
G1 X90.979 Y102.394 E0.26199
G1 X91.256 Y101.737 E0.28571
G1 X91.541 Y101.119 E0.30834
G1 X91.853 Y100.495 E0.33155
G1 X92.106 Y100.027 E0.34924
G1 X92.46 Y99.419 E0.37264
G1 X92.827 Y98.833 E0.39564
G1 X93.247 Y98.212 E0.42057
G1 X93.612 Y97.709 E0.44124
G1 X94.028 Y97.171 E0.46386
G1 X94.329 Y96.806 E0.4796
G1 X94.781 Y96.291 E0.50239
G1 X95.313 Y95.722 E0.5283
G1 X95.832 Y95.203 E0.55271
G1 X96.159 Y94.897 E0.56761
G1 X96.658 Y94.458 E0.58971
G1 X97.223 Y93.99 E0.61411
G1 X97.797 Y93.545 E0.63827
G1 X98.226 Y93.235 E0.65587
G1 X98.803 Y92.846 E0.67902
G1 X99.309 Y92.527 E0.69891
G1 X99.91 Y92.174 E0.7221
G1 X100.53 Y91.836 E0.74558
G1 X101.187 Y91.506 E0.77004
G1 X101.614 Y91.309 E0.78568
G1 X102.244 Y91.042 E0.80843
G1 X102.922 Y90.779 E0.83262
G1 X103.592 Y90.543 E0.85625
G1 X104.109 Y90.38 E0.87428
G1 X104.785 Y90.191 E0.89762
G1 X105.414 Y90.036 E0.91917
G1 X106.108 Y89.888 E0.94277
G1 X106.661 Y89.789 E0.96146
G1 X107.367 Y89.686 E0.98519
G1 X108.059 Y89.608 E1.00835
G1 X108.737 Y89.553 E1.03097
G1 X109.213 Y89.529 E1.04683
G1 X109.931 Y89.516 E1.07071
G1 X110.67 Y89.527 E1.09529
G1 X111.377 Y89.561 E1.11883
G1 X111.868 Y89.6 E1.13522
G1 X112.568 Y89.678 E1.15864
G1 X113.268 Y89.779 E1.18217
G1 X113.943 Y89.898 E1.20496
G1 X114.48 Y90.01 E1.22321
G1 X115.205 Y90.187 E1.24803
G1 X115.843 Y90.366 E1.27007
G1 X116.481 Y90.566 E1.29231
G1 X116.982 Y90.74 E1.30995
G1 X117.67 Y91.005 E1.33447
G1 X118.285 Y91.266 E1.35669
G1 X118.876 Y91.538 E1.37833
G1 X119.382 Y91.789 E1.39711
G1 X120.045 Y92.147 E1.42218
G1 X120.577 Y92.458 E1.44267
G1 X121.178 Y92.835 E1.46627
G1 X121.759 Y93.227 E1.48958
G1 X122.333 Y93.642 E1.51314
G1 X122.707 Y93.931 E1.52886
G1 X123.219 Y94.352 E1.55091
G1 X123.742 Y94.809 E1.57401
G1 X124.272 Y95.304 E1.59813
G1 X124.656 Y95.687 E1.61616
G1 X125.144 Y96.206 E1.63986
G1 X125.586 Y96.708 E1.66211
G1 X126.034 Y97.251 E1.68552
G1 X126.398 Y97.722 E1.70532
G1 X126.803 Y98.282 E1.7283
G1 X127.113 Y98.74 E1.7467
G1 X127.486 Y99.329 E1.76989
G1 X127.833 Y99.919 E1.79265
G1 X128.19 Y100.577 E1.81755
G1 X128.433 Y101.063 E1.83562
G1 X128.717 Y101.678 E1.85815
G1 X128.984 Y102.306 E1.88085
G1 X129.243 Y102.974 E1.90468
G1 X129.436 Y103.525 E1.9241
G1 X129.652 Y104.215 E1.94815
G1 X129.796 Y104.733 E1.96603
G1 X129.953 Y105.372 E1.98791
G1 X130.104 Y106.076 E2.01186
G1 X130.232 Y106.785 E2.03582
G1 X130.306 Y107.289 E2.05277
G1 X130.386 Y107.981 E2.07594
G1 X130.439 Y108.622 E2.09733
G1 X130.474 Y109.324 E2.12071
G1 X130.485 Y109.917 E2.14043
G1 X130.474 Y110.651 E2.16485
G1 X130.442 Y111.315 E2.18696
G1 X130.388 Y111.998 E2.20975
G1 X130.328 Y112.539 E2.22785
G1 X130.228 Y113.234 E2.2512
G1 X130.116 Y113.87 E2.27268
G1 X129.966 Y114.585 E2.29698
G1 X129.827 Y115.151 E2.31637
G1 X129.641 Y115.816 E2.33933
G1 X129.444 Y116.445 E2.36126
G1 X129.213 Y117.107 E2.38458
G1 X129.021 Y117.606 E2.40236
G1 X128.745 Y118.259 E2.42594
G1 X128.463 Y118.871 E2.44835
G1 X128.152 Y119.495 E2.47154
G1 X127.896 Y119.969 E2.48946
G1 X127.543 Y120.575 E2.51278
G1 X127.179 Y121.157 E2.53561
G1 X126.757 Y121.782 E2.5607
G1 X126.39 Y122.288 E2.58149
G1 X125.971 Y122.831 E2.6043
G1 X125.669 Y123.197 E2.62008
G1 X125.219 Y123.709 E2.64275
G1 X124.687 Y124.278 E2.66866
G1 X124.168 Y124.797 E2.69307
G1 X123.841 Y125.103 E2.70797
G1 X123.342 Y125.542 E2.73007
G1 X122.777 Y126.01 E2.75448
G1 X122.205 Y126.453 E2.77854
G1 X121.779 Y126.761 E2.79602
G1 X121.202 Y127.151 E2.81919
G1 X120.693 Y127.472 E2.8392
G1 X120.09 Y127.826 E2.86246
G1 X119.47 Y128.164 E2.88595
G1 X118.812 Y128.495 E2.91044
G1 X118.387 Y128.691 E2.92601
G1 X117.761 Y128.956 E2.94862
G1 X117.081 Y129.22 E2.97288
G1 X116.408 Y129.457 E2.99661
G1 X115.891 Y129.62 E3.01464
G1 X115.215 Y129.809 E3.03799
G1 X114.586 Y129.964 E3.05953
G1 X113.892 Y130.112 E3.08314
G1 X113.339 Y130.211 E3.10182
G1 X112.633 Y130.314 E3.12555
G1 X111.941 Y130.392 E3.14871
G1 X111.263 Y130.447 E3.17134
G1 X110.787 Y130.471 E3.18719
G1 X110.069 Y130.484 E3.21107
G1 X109.33 Y130.473 E3.23566
G1 X108.623 Y130.439 E3.2592
G1 X108.132 Y130.4 E3.27558
G1 X107.432 Y130.322 E3.29901
G1 X106.732 Y130.221 E3.32253
G1 X106.057 Y130.102 E3.34533
G1 X105.52 Y129.99 E3.36357
G1 X104.795 Y129.813 E3.38839
G1 X104.157 Y129.634 E3.41043
G1 X103.519 Y129.434 E3.43267
G1 X103.018 Y129.26 E3.45031
G1 X102.33 Y128.995 E3.47483
G1 X101.715 Y128.734 E3.49705
G1 X101.124 Y128.462 E3.51869
G1 X100.618 Y128.211 E3.53748
G1 X99.955 Y127.853 E3.56254
G1 X99.423 Y127.542 E3.58304
G1 X98.822 Y127.165 E3.60663
G1 X98.241 Y126.773 E3.62994
G1 X97.667 Y126.358 E3.6535
G1 X97.293 Y126.069 E3.66922
G1 X96.78 Y125.647 E3.69132
G1 X96.256 Y125.189 E3.71446
G1 X95.727 Y124.695 E3.73854
G1 X95.34 Y124.309 E3.75672
G1 X94.849 Y123.787 E3.78055
G1 X94.41 Y123.288 E3.80266
G1 X93.959 Y122.74 E3.82626
G1 X93.588 Y122.259 E3.84647
G1 X93.183 Y121.699 E3.86945
G1 X92.881 Y121.252 E3.8874
G1 X92.517 Y120.675 E3.91009
G1 X92.169 Y120.084 E3.9329
G1 X91.805 Y119.414 E3.95826
G1 X91.561 Y118.925 E3.97643
G1 X91.279 Y118.314 E3.99882
G1 X91.014 Y117.69 E4.02136
G1 X90.75 Y117.004 E4.04581
G1 X90.551 Y116.432 E4.06596
G1 X90.341 Y115.761 E4.08934
G1 X90.203 Y115.264 E4.1065
G1 X90.046 Y114.625 E4.12838
G1 X89.895 Y113.92 E4.15236
G1 X89.766 Y113.202 E4.17663
G1 X89.693 Y112.701 E4.19346
G1 X89.616 Y112.026 E4.21606
G1 X89.562 Y111.376 E4.23775
G1 X89.526 Y110.671 E4.26123
G1 X89.515 Y110.085 E4.28073
G0 F6000 X89.915 Y110.078
G1 F1200 X89.925 Y109.369 E4.30431
G1 X89.957 Y108.705 E4.32642
G1 X90.01 Y108.042 E4.34854
G1 X90.071 Y107.494 E4.36688
G1 X90.167 Y106.825 E4.38936
G1 X90.278 Y106.196 E4.4106
G1 X90.423 Y105.51 E4.43393
G1 X90.562 Y104.944 E4.45331
G1 X90.741 Y104.304 E4.47541
G1 X90.938 Y103.675 E4.49734
G1 X91.16 Y103.036 E4.51984
G1 X91.352 Y102.537 E4.53762
G1 X91.619 Y101.905 E4.56044
G1 X91.904 Y101.287 E4.58307
G1 X92.205 Y100.685 E4.60546
G1 X92.458 Y100.217 E4.62315
G1 X92.799 Y99.632 E4.64568
G1 X93.166 Y99.046 E4.66867
G1 X93.571 Y98.447 E4.69272
G1 X93.936 Y97.944 E4.71339
G1 X94.337 Y97.425 E4.73521
G1 X94.638 Y97.06 E4.75094
G1 X95.073 Y96.565 E4.77286
G1 X95.605 Y95.996 E4.79877
G1 X96.105 Y95.495 E4.82231
G1 X96.432 Y95.189 E4.83721
G1 X96.913 Y94.766 E4.85851
G1 X97.478 Y94.298 E4.88291
G1 X98.032 Y93.869 E4.90622
G1 X98.461 Y93.559 E4.92382
G1 X99.016 Y93.184 E4.9461
G1 X99.522 Y92.865 E4.96599
G1 X100.101 Y92.525 E4.98833
G1 X100.721 Y92.187 E5.01181
G1 X101.354 Y91.869 E5.03537
G1 X101.781 Y91.672 E5.05101
G1 X102.389 Y91.414 E5.07298
G1 X103.067 Y91.151 E5.09717
G1 X103.713 Y90.925 E5.11993
G1 X104.23 Y90.762 E5.13796
G1 X104.881 Y90.579 E5.16045
G1 X105.51 Y90.424 E5.182
G1 X106.178 Y90.282 E5.20471
G1 X106.731 Y90.183 E5.2234
G1 X107.412 Y90.084 E5.24629
G1 X108.104 Y90.006 E5.26945
G1 X108.757 Y89.952 E5.29124
G1 X109.233 Y89.928 E5.30709
G1 X109.925 Y89.916 E5.33011
G1 X110.664 Y89.927 E5.3547
G1 X111.345 Y89.959 E5.37737
G1 X111.836 Y89.998 E5.39375
G1 X112.511 Y90.074 E5.41635
G1 X113.211 Y90.175 E5.43987
G1 X113.861 Y90.289 E5.46182
G1 X114.398 Y90.401 E5.48006
G1 X115.097 Y90.572 E5.504
G1 X115.735 Y90.751 E5.52604
G1 X116.35 Y90.944 E5.54747
G1 X116.851 Y91.118 E5.56511
G1 X117.514 Y91.373 E5.58874
G1 X118.129 Y91.634 E5.61096
G1 X118.698 Y91.896 E5.6318
G1 X119.204 Y92.147 E5.65058
G1 X119.844 Y92.492 E5.67477
G1 X120.376 Y92.803 E5.69526
G1 X120.955 Y93.167 E5.71801
G1 X121.536 Y93.559 E5.74132
G1 X122.088 Y93.958 E5.76397
G1 X122.462 Y94.247 E5.77969
G1 X122.956 Y94.653 E5.80096
G1 X123.479 Y95.11 E5.82406
G1 X123.99 Y95.587 E5.84731
G1 X124.374 Y95.97 E5.86535
G1 X124.844 Y96.47 E5.88817
G1 X125.286 Y96.972 E5.91042
G1 X125.717 Y97.495 E5.93296
G1 X126.081 Y97.966 E5.95276
G1 X126.472 Y98.506 E5.97493
G1 X126.782 Y98.964 E5.99333
G1 X127.141 Y99.532 E6.01568
G1 X127.488 Y100.122 E6.03844
G1 X127.832 Y100.756 E6.06243
G1 X128.075 Y101.242 E6.08051
G1 X128.349 Y101.835 E6.10223
G1 X128.616 Y102.463 E6.12493
G1 X128.865 Y103.106 E6.14786
G1 X129.058 Y103.657 E6.16728
G1 X129.267 Y104.322 E6.19047
G1 X129.411 Y104.84 E6.20835
G1 X129.562 Y105.456 E6.22944
G1 X129.713 Y106.16 E6.25339
G1 X129.837 Y106.843 E6.27648
G1 X129.911 Y107.347 E6.29342
G1 X129.987 Y108.014 E6.31575
G1 X130.04 Y108.655 E6.33714
G1 X130.074 Y109.331 E6.35965
G1 X130.085 Y109.924 E6.37938
G1 X130.075 Y110.631 E6.4029
G1 X130.043 Y111.295 E6.42501
G1 X129.99 Y111.953 E6.44697
G1 X129.93 Y112.494 E6.46507
G1 X129.834 Y113.164 E6.48758
G1 X129.722 Y113.8 E6.50906
G1 X129.577 Y114.49 E6.53251
G1 X129.438 Y115.056 E6.5519
G1 X129.259 Y115.696 E6.574
G1 X129.062 Y116.325 E6.59592
G1 X128.84 Y116.964 E6.61842
G1 X128.648 Y117.463 E6.6362
G1 X128.382 Y118.092 E6.65892
G1 X128.1 Y118.704 E6.68133
G1 X127.8 Y119.305 E6.70367
G1 X127.544 Y119.779 E6.72159
G1 X127.204 Y120.363 E6.74407
G1 X126.84 Y120.945 E6.7669
G1 X126.434 Y121.548 E6.79108
G1 X126.067 Y122.054 E6.81187
G1 X125.662 Y122.576 E6.83384
G1 X125.36 Y122.942 E6.84962
G1 X124.927 Y123.435 E6.87145
G1 X124.395 Y124.004 E6.89735
G1 X123.895 Y124.505 E6.9209
G1 X123.568 Y124.811 E6.93579
G1 X123.087 Y125.234 E6.9571
G1 X122.522 Y125.702 E6.9815
G1 X121.971 Y126.129 E7.00468
G1 X121.545 Y126.437 E7.02217
G1 X120.988 Y126.813 E7.04452
G1 X120.479 Y127.134 E7.06453
G1 X119.899 Y127.475 E7.08691
G1 X119.279 Y127.813 E7.1104
G1 X118.644 Y128.132 E7.13403
G1 X118.219 Y128.328 E7.1496
G1 X117.616 Y128.583 E7.17138
G1 X116.936 Y128.847 E7.19564
G1 X116.287 Y129.075 E7.21852
G1 X115.77 Y129.238 E7.23655
G1 X115.119 Y129.421 E7.25904
G1 X114.49 Y129.576 E7.28058
G1 X113.822 Y129.718 E7.3033
G1 X113.269 Y129.817 E7.32198
G1 X112.588 Y129.916 E7.34487
G1 X111.896 Y129.994 E7.36803
G1 X111.243 Y130.048 E7.38983
G1 X110.767 Y130.072 E7.40568
G1 X110.075 Y130.084 E7.4287
G1 X109.336 Y130.073 E7.45328
G1 X108.655 Y130.041 E7.47595
G1 X108.164 Y130.002 E7.49234
G1 X107.489 Y129.926 E7.51493
G1 X106.789 Y129.825 E7.53845
G1 X106.139 Y129.711 E7.5604
G1 X105.602 Y129.599 E7.57865
G1 X104.903 Y129.428 E7.60258
G1 X104.265 Y129.249 E7.62462
G1 X103.65 Y129.056 E7.64606
G1 X103.149 Y128.882 E7.6637
G1 X102.486 Y128.627 E7.68733
G1 X101.871 Y128.366 E7.70955
G1 X101.302 Y128.104 E7.73038
G1 X100.796 Y127.853 E7.74917
G1 X100.156 Y127.508 E7.77335
G1 X99.624 Y127.197 E7.79385
G1 X99.045 Y126.833 E7.81659
G1 X98.464 Y126.441 E7.8399
G1 X97.912 Y126.042 E7.86256
G1 X97.538 Y125.753 E7.87828
G1 X97.043 Y125.346 E7.89959
G1 X96.519 Y124.888 E7.92274
G1 X96.009 Y124.412 E7.94594
G1 X95.622 Y124.026 E7.96412
G1 X95.149 Y123.523 E7.98709
G1 X94.71 Y123.024 E8.00919
G1 X94.276 Y122.496 E8.03193
G1 X93.905 Y122.015 E8.05213
G1 X93.515 Y121.475 E8.07428
G1 X93.213 Y121.028 E8.09223
G1 X92.862 Y120.472 E8.1141
G1 X92.514 Y119.881 E8.13691
G1 X92.163 Y119.236 E8.16133
G1 X91.919 Y118.747 E8.17951
G1 X91.647 Y118.157 E8.20112
G1 X91.382 Y117.533 E8.22366
G1 X91.128 Y116.873 E8.24719
G1 X90.929 Y116.301 E8.26733
G1 X90.726 Y115.654 E8.28988
G1 X90.588 Y115.157 E8.30704
G1 X90.437 Y114.541 E8.32813
G1 X90.286 Y113.836 E8.35211
G1 X90.162 Y113.144 E8.3755
G1 X90.089 Y112.643 E8.39233
G1 X90.014 Y111.993 E8.4141
G1 X89.96 Y111.343 E8.43579
G1 X89.926 Y110.664 E8.4584
G1 X89.915 Y110.078 E8.4779
G0 F6000 X90.315 Y110.07
G1 F1200 X90.325 Y109.388 E8.50058
G1 X90.357 Y108.724 E8.52269
G1 X90.408 Y108.087 E8.54395
G1 X90.469 Y107.539 E8.56229
G1 X90.561 Y106.894 E8.58396
G1 X90.672 Y106.265 E8.6052
G1 X90.811 Y105.605 E8.62763
G1 X90.95 Y105.039 E8.64702
G1 X91.122 Y104.423 E8.66829
G1 X91.319 Y103.794 E8.69021
G1 X91.533 Y103.18 E8.71184
G1 X91.725 Y102.681 E8.72962
G1 X91.982 Y102.072 E8.75161
G1 X92.267 Y101.454 E8.77424
G1 X92.557 Y100.875 E8.79578
G1 X92.81 Y100.407 E8.81348
G1 X93.138 Y99.844 E8.83515
G1 X93.505 Y99.258 E8.85814
G1 X93.895 Y98.681 E8.88131
G1 X94.26 Y98.178 E8.90198
G1 X94.646 Y97.679 E8.92296
G1 X94.947 Y97.314 E8.9387
G1 X95.365 Y96.838 E8.95977
G1 X95.897 Y96.269 E8.98567
G1 X96.379 Y95.787 E9.00835
G1 X96.706 Y95.481 E9.02324
G1 X97.168 Y95.074 E9.04372
G1 X97.733 Y94.606 E9.06812
G1 X98.266 Y94.194 E9.09053
G1 X98.695 Y93.884 E9.10813
G1 X99.229 Y93.523 E9.12957
G1 X99.735 Y93.204 E9.14947
G1 X100.293 Y92.876 E9.17099
G1 X100.913 Y92.538 E9.19448
G1 X101.522 Y92.232 E9.21715
G1 X101.949 Y92.035 E9.23279
G1 X102.533 Y91.787 E9.25389
G1 X103.211 Y91.524 E9.27808
G1 X103.833 Y91.306 E9.3
G1 X104.35 Y91.143 E9.31803
G1 X104.976 Y90.967 E9.33966
G1 X105.605 Y90.812 E9.36121
G1 X106.249 Y90.676 E9.3831
G1 X106.802 Y90.577 E9.40178
G1 X107.457 Y90.481 E9.4238
G1 X108.149 Y90.403 E9.44696
G1 X108.777 Y90.352 E9.46792
G1 X109.253 Y90.328 E9.48377
G1 X109.919 Y90.316 E9.50593
G1 X110.658 Y90.327 E9.53051
G1 X111.314 Y90.358 E9.55235
G1 X111.805 Y90.397 E9.56873
G1 X112.454 Y90.47 E9.59046
G1 X113.154 Y90.571 E9.61398
G1 X113.78 Y90.681 E9.63512
G1 X114.317 Y90.793 E9.65336
G1 X114.989 Y90.957 E9.67637
G1 X115.627 Y91.136 E9.69841
G1 X116.218 Y91.322 E9.71902
G1 X116.719 Y91.496 E9.73666
G1 X117.358 Y91.742 E9.75943
G1 X117.973 Y92.003 E9.78165
G1 X118.521 Y92.254 E9.8017
G1 X119.027 Y92.505 E9.82048
G1 X119.642 Y92.837 E9.84373
G1 X120.174 Y93.148 E9.86423
G1 X120.731 Y93.499 E9.88612
G1 X121.312 Y93.891 E9.90943
G1 X121.844 Y94.275 E9.93126
G1 X122.218 Y94.564 E9.94698
G1 X122.693 Y94.954 E9.96742
G1 X123.216 Y95.411 E9.99052
G1 X123.707 Y95.87 E10.01287
G1 X124.091 Y96.253 E10.03091
G1 X124.543 Y96.735 E10.05289
G1 X124.985 Y97.237 E10.07514
G1 X125.401 Y97.74 E10.09685
G1 X125.765 Y98.211 E10.11665
G1 X126.141 Y98.731 E10.13799
G1 X126.451 Y99.189 E10.15638
G1 X126.796 Y99.735 E10.17786
G1 X127.143 Y100.325 E10.20063
G1 X127.474 Y100.934 E10.22368
G1 X127.717 Y101.42 E10.24176
G1 X127.981 Y101.991 E10.26268
G1 X128.248 Y102.619 E10.28538
G1 X128.488 Y103.238 E10.30746
G1 X128.681 Y103.789 E10.32688
G1 X128.881 Y104.429 E10.34918
G1 X129.025 Y104.947 E10.36706
G1 X129.171 Y105.54 E10.38737
G1 X129.322 Y106.244 E10.41132
G1 X129.441 Y106.901 E10.43353
G1 X129.515 Y107.405 E10.45047
G1 X129.588 Y108.046 E10.47193
G1 X129.641 Y108.687 E10.49332
G1 X129.674 Y109.339 E10.51503
G1 X129.685 Y109.932 E10.53476
G1 X129.675 Y110.612 E10.55738
G1 X129.643 Y111.276 E10.57949
G1 X129.593 Y111.909 E10.60061
G1 X129.533 Y112.45 E10.61871
G1 X129.44 Y113.095 E10.64039
G1 X129.328 Y113.731 E10.66187
G1 X129.189 Y114.395 E10.68443
G1 X129.05 Y114.961 E10.70381
G1 X128.878 Y115.577 E10.72509
G1 X128.681 Y116.206 E10.74701
G1 X128.467 Y116.82 E10.76864
G1 X128.275 Y117.319 E10.78642
G1 X128.019 Y117.925 E10.8083
G1 X127.737 Y118.537 E10.83071
G1 X127.448 Y119.115 E10.8522
G1 X127.192 Y119.589 E10.87012
G1 X126.865 Y120.151 E10.89175
G1 X126.501 Y120.733 E10.91458
G1 X126.11 Y121.313 E10.93784
G1 X125.743 Y121.819 E10.95864
G1 X125.353 Y122.322 E10.9798
G1 X125.051 Y122.688 E10.99559
